; generated by PrusaSlicer 2.5.0+win64 on 2023-06-09 at 09:29:13 UTC

; 

; external perimeters extrusion width = 0.42mm
; perimeters extrusion width = 0.44mm
; infill extrusion width = 0.44mm
; solid infill extrusion width = 0.44mm
; top infill extrusion width = 0.40mm
; first layer extrusion width = 0.42mm

M201 X500 Y500 Z100 E5000 ; sets maximum accelerations, mm/sec^2
M203 X500 Y500 Z10 E60 ; sets maximum feedrates, mm / sec
M204 P500 R1000 T500 ; sets acceleration (P, T) and retract acceleration (R), mm/sec^2
M205 X8.00 Y8.00 Z0.40 E5.00 ; sets the jerk limits, mm/sec
M205 S0 T0 ; sets the minimum extruding and travel feed rate, mm/sec
M107
;TYPE:Custom
G90 ; use absolute coordinates
M83 ; extruder relative mode
M104 S150 ; set temporary nozzle temp to prevent oozing during homing
M140 S60 ; set final bed temp
G4 S30 ; allow partial nozzle warmup
G28 ; home all axis and restore leveling
G1 Z50 F240
G1 X2.0 Y10 F3000
M104 S215 ; set final nozzle temp
M190 S60 ; wait for bed temp to stabilize
M109 S215 ; wait for nozzle temp to stabilize
G1 Z0.28 F240
G92 E0
G1 X2.0 Y140 E10 F1500 ; prime the nozzle
G1 X2.3 Y140 F5000
G92 E0
G1 X2.3 Y10 E10 F1200 ; prime the nozzle
G92 E0
G21 ; set units to millimeters
G90 ; use absolute coordinates
M83 ; use relative distances for extrusion
; Filament gcode
M107
;LAYER_CHANGE
;Z:0.2
;HEIGHT:0.2
;BEFORE_LAYER_CHANGE
G92 E0
;0.2


G1 E-.8 F1800
G1 Z.2 F9000
;AFTER_LAYER_CHANGE
;0.2
G1 X104.492 Y89.6
G1 E.8 F1800
M204 S500
;TYPE:Skirt/Brim
;WIDTH:0.42
G1 F900
G1 X106.75 Y88.844 E.07467
G1 X113.25 Y88.844 E.2038
G1 X114.926 Y89.239 E.05397
G1 X116.249 Y90.34 E.05397
G1 X117.004 Y92.599 E.07467
G1 X117.004 Y115.533 E.71908
G1 X116.609 Y117.208 E.05397
G1 X115.508 Y118.531 E.05397
G1 X113.25 Y119.287 E.07467
G1 X106.75 Y119.287 E.2038
G1 X105.074 Y118.892 E.05397
G1 X103.751 Y117.791 E.05397
G1 X102.996 Y115.533 E.07467
G1 X102.996 Y92.599 E.71908
G1 X103.391 Y90.923 E.05397
G1 X104.453 Y89.646 E.05209
G1 X104.754 Y89.916 F9000
G1 F900
G1 X104.857 Y89.802 E.00483
G1 X106.75 Y89.222 E.06207
G1 X113.25 Y89.222 E.2038
G1 X114.833 Y89.616 E.05115
G1 X116.047 Y90.706 E.05115
G1 X116.627 Y92.599 E.06207
G1 X116.627 Y115.533 E.71908
G1 X116.233 Y117.116 E.05115
G1 X115.143 Y118.329 E.05115
G1 X113.25 Y118.91 E.06207
G1 X106.75 Y118.91 E.2038
G1 X105.167 Y118.516 E.05115
G1 X103.953 Y117.425 E.05115
G1 X103.373 Y115.533 E.06207
G1 X103.373 Y92.599 E.71908
G1 X103.767 Y91.015 E.05115
G1 X104.714 Y89.961 E.04444
; printing object derjak1.STL id:0 copy 0
;WIPE_START
G1 F7200
G1 X104.857 Y89.802 E-.05084
G1 X106.75 Y89.222 E-.47018
G1 X107.756 Y89.222 E-.23899
;WIPE_END
G1 E-.04 F1800
G1 X107.499 Y93.35 F9000
G1 E.8 F1800
;TYPE:Perimeter
;WIDTH:0.544381
G1 F900
G1 X108.001 Y93.35 E.02091
G1 X108.001 Y100.042 E.27904
G1 X107.499 Y100.042 E.02091
G1 X107.499 Y93.41 E.27654
;WIPE_START
G1 F7200
G1 X108.001 Y93.35 E-.11995
G1 X108.001 Y96.045 E-.64005
;WIPE_END
G1 E-.04 F1800
G1 X108.44 Y92.911 F9000
G1 E.8 F1800
;TYPE:External perimeter
;WIDTH:0.419999
G1 F900
G1 X108.44 Y100.481 E.23737
G1 X107.06 Y100.481 E.04327
G1 X107.06 Y92.911 E.23737
G1 X108.38 Y92.911 E.04139
G1 X108.416 Y93.31 F9000
;WIPE_START
G1 F7200
G1 X108.405 Y96.111 E-.76
;WIPE_END
G1 E-.04 F1800
G1 X111.999 Y93.35 F9000
G1 E.8 F1800
;TYPE:Perimeter
;WIDTH:0.544381
G1 F900
G1 X112.501 Y93.35 E.02091
G1 X112.501 Y100.042 E.27904
G1 X111.999 Y100.042 E.02091
G1 X111.999 Y93.41 E.27654
G1 X111.56 Y92.911 F9000
;TYPE:External perimeter
;WIDTH:0.419999
G1 F900
G1 X112.94 Y92.911 E.04327
G1 X112.94 Y100.481 E.23737
G1 X111.56 Y100.481 E.04327
G1 X111.56 Y92.971 E.23549
G1 X111.918 Y93.09 F9000
; stop printing object derjak1.STL id:0 copy 0
M106 S255
;LAYER_CHANGE
;Z:0.36
;HEIGHT:0.16
;BEFORE_LAYER_CHANGE
G92 E0
;0.36


;WIPE_START
G1 F7200
G1 X112.94 Y92.911 E-.32806
G1 X112.94 Y94.73 E-.43194
;WIPE_END
G1 E-.04 F1800
G1 Z.36 F9000
;AFTER_LAYER_CHANGE
;0.36
M104 S210 ; set temperature
G1 X117.004 Y94.73
G1 E.8 F1800
;TYPE:Skirt/Brim
;WIDTH:0.42
G1 F1223
G1 X117.004 Y115.533 E.53369
G1 X116.609 Y117.208 E.04416
G1 X115.508 Y118.531 E.04416
G1 X113.25 Y119.287 E.06109
G1 X106.75 Y119.287 E.16675
G1 X105.074 Y118.892 E.04416
G1 X103.751 Y117.791 E.04416
G1 X102.996 Y115.533 E.06109
G1 X102.996 Y92.599 E.58836
G1 X103.391 Y90.923 E.04416
G1 X104.492 Y89.6 E.04416
G1 X106.75 Y88.844 E.06109
G1 X113.25 Y88.844 E.16675
G1 X114.926 Y89.239 E.04416
G1 X116.249 Y90.34 E.04416
G1 X117.004 Y92.599 E.06109
G1 X117.004 Y94.67 E.05313
G1 X116.627 Y94.67 F9000
G1 F1223
G1 X116.627 Y115.533 E.53523
G1 X116.233 Y117.116 E.04185
G1 X115.143 Y118.329 E.04185
G1 X113.25 Y118.91 E.05079
G1 X106.75 Y118.91 E.16675
G1 X105.167 Y118.516 E.04185
G1 X103.953 Y117.425 E.04185
G1 X103.373 Y115.533 E.05079
G1 X103.373 Y92.599 E.58836
G1 X103.767 Y91.015 E.04185
G1 X104.857 Y89.802 E.04185
G1 X106.75 Y89.222 E.05079
G1 X113.25 Y89.222 E.16675
G1 X114.833 Y89.616 E.04185
G1 X116.047 Y90.706 E.04185
G1 X116.627 Y92.599 E.05079
G1 X116.627 Y94.61 E.05159
; printing object derjak1.STL id:0 copy 0
;WIPE_START
G1 F7200
G1 X116.627 Y97.81 E-.76
;WIPE_END
G1 E-.04 F1800
G1 X111.856 Y93.204 F9000
G1 E.8 F1800
;TYPE:Perimeter
;WIDTH:0.439999
G1 F1223
G1 X112.644 Y93.204 E.02128
G1 X112.644 Y114.927 E.58618
G1 X111.856 Y114.927 E.02128
G1 X111.856 Y93.264 E.58456
G1 X111.46 Y92.809 F9000
;TYPE:External perimeter
;WIDTH:0.419999
G1 F1223
G1 X113.04 Y92.809 E.04053
G1 X113.04 Y115.323 E.57758
G1 X111.46 Y115.323 E.04053
G1 X111.46 Y92.869 E.57604
G1 X111.811 Y93 F9000
;WIPE_START
G1 F7200
G1 X113.04 Y92.809 E-.37552
G1 X113.04 Y94.427 E-.38448
;WIPE_END
G1 E-.04 F1800
G1 X112.25 Y114.533 F9000
G1 E.8 F1800
;TYPE:Perimeter
;WIDTH:0.417348
G1 F1223
G1 X112.25 Y93.599 E.53335
;WIPE_START
G1 F7200
G1 X112.25 Y96.799 E-.76
;WIPE_END
G1 E-.04 F1800
G1 X108.144 Y93.204 F9000
G1 E.8 F1800
;WIDTH:0.439999
G1 F1223
G1 X108.144 Y114.927 E.58618
G1 X107.356 Y114.927 E.02128
G1 X107.356 Y93.204 E.58618
G1 X108.084 Y93.204 E.01966
G1 X108.54 Y92.809 F9000
;TYPE:External perimeter
;WIDTH:0.419999
G1 F1223
G1 X108.54 Y115.323 E.57758
G1 X106.96 Y115.323 E.04053
G1 X106.96 Y92.809 E.57758
G1 X108.48 Y92.809 E.03899
G1 X108.531 Y93.209 F9000
;WIPE_START
G1 F7200
G1 X108.489 Y96.009 E-.76
;WIPE_END
G1 E-.04 F1800
G1 X107.75 Y114.533 F9000
G1 E.8 F1800
;TYPE:Perimeter
;WIDTH:0.417348
G1 F1223
G1 X107.75 Y93.599 E.53335
; stop printing object derjak1.STL id:0 copy 0
;LAYER_CHANGE
;Z:0.52
;HEIGHT:0.16
;BEFORE_LAYER_CHANGE
G92 E0
;0.52


;WIPE_START
G1 F7200
G1 X107.75 Y96.799 E-.76
;WIPE_END
G1 E-.04 F1800
G1 Z.52 F9000
;AFTER_LAYER_CHANGE
;0.52
; printing object derjak1.STL id:0 copy 0
G1 X108.144 Y93.202
G1 E.8 F1800
;WIDTH:0.439999
G1 F1097
G1 X108.144 Y126.994 E.91185
G1 X107.356 Y126.994 E.02128
G1 X107.356 Y93.202 E.91185
G1 X108.084 Y93.202 E.01966
G1 X108.54 Y92.807 F9000
;TYPE:External perimeter
;WIDTH:0.419999
G1 F1097
G1 X108.54 Y127.389 E.8872
G1 X106.96 Y127.389 E.04053
G1 X106.96 Y92.807 E.8872
G1 X108.48 Y92.807 E.03899
G1 X108.534 Y93.207 F9000
;WIPE_START
G1 F7200
G1 X108.486 Y96.007 E-.76
;WIPE_END
G1 E-.04 F1800
G1 X107.75 Y126.599 F9000
G1 E.8 F1800
;TYPE:Perimeter
;WIDTH:0.417348
G1 F1097
G1 X107.75 Y93.597 E.84084
;WIPE_START
G1 F7200
G1 X107.75 Y96.797 E-.76
;WIPE_END
G1 E-.04 F1800
G1 X111.856 Y93.202 F9000
G1 E.8 F1800
;WIDTH:0.439999
G1 F1097
G1 X112.644 Y93.202 E.02128
G1 X112.644 Y126.994 E.91185
G1 X111.856 Y126.994 E.02128
G1 X111.856 Y93.262 E.91023
G1 X111.46 Y92.807 F9000
;TYPE:External perimeter
;WIDTH:0.419999
G1 F1097
G1 X113.04 Y92.807 E.04053
G1 X113.04 Y127.389 E.8872
G1 X111.46 Y127.389 E.04053
G1 X111.46 Y92.867 E.88566
G1 X111.809 Y93.001 F9000
;WIPE_START
G1 F7200
G1 X113.04 Y92.807 E-.37552
G1 X113.04 Y94.426 E-.38448
;WIPE_END
G1 E-.04 F1800
G1 X112.25 Y126.599 F9000
G1 E.8 F1800
;TYPE:Perimeter
;WIDTH:0.417348
G1 F1097
G1 X112.25 Y93.597 E.84084
; stop printing object derjak1.STL id:0 copy 0
;LAYER_CHANGE
;Z:0.68
;HEIGHT:0.16
;BEFORE_LAYER_CHANGE
G92 E0
;0.68


;WIPE_START
G1 F7200
G1 X112.25 Y96.797 E-.76
;WIPE_END
G1 E-.04 F1800
G1 Z.68 F9000
;AFTER_LAYER_CHANGE
;0.68
; printing object derjak1.STL id:0 copy 0
G1 X108.144 Y93.2
G1 E.8 F1800
;WIDTH:0.439999
G1 F1098
G1 X108.144 Y126.992 E.91185
G1 X107.356 Y126.992 E.02128
G1 X107.356 Y93.2 E.91185
G1 X108.084 Y93.2 E.01966
G1 X108.54 Y92.805 F9000
;TYPE:External perimeter
;WIDTH:0.419999
G1 F1098
G1 X108.54 Y127.387 E.8872
G1 X106.96 Y127.387 E.04053
G1 X106.96 Y92.805 E.8872
G1 X108.48 Y92.805 E.03899
G1 X108.534 Y93.205 F9000
;WIPE_START
G1 F7200
G1 X108.486 Y96.005 E-.76
;WIPE_END
G1 E-.04 F1800
G1 X107.75 Y126.597 F9000
G1 E.8 F1800
;TYPE:Perimeter
;WIDTH:0.417348
G1 F1098
G1 X107.75 Y93.595 E.84084
;WIPE_START
G1 F7200
G1 X107.75 Y96.795 E-.76
;WIPE_END
G1 E-.04 F1800
G1 X111.856 Y93.2 F9000
G1 E.8 F1800
;WIDTH:0.439999
G1 F1098
G1 X112.644 Y93.2 E.02128
G1 X112.644 Y126.992 E.91185
G1 X111.856 Y126.992 E.02128
G1 X111.856 Y93.26 E.91023
G1 X111.46 Y92.805 F9000
;TYPE:External perimeter
;WIDTH:0.419999
G1 F1098
G1 X113.04 Y92.805 E.04053
G1 X113.04 Y127.387 E.8872
G1 X111.46 Y127.387 E.04053
G1 X111.46 Y92.865 E.88566
G1 X111.809 Y92.999 F9000
;WIPE_START
G1 F7200
G1 X113.04 Y92.805 E-.37552
G1 X113.04 Y94.424 E-.38448
;WIPE_END
G1 E-.04 F1800
G1 X112.25 Y126.597 F9000
G1 E.8 F1800
;TYPE:Perimeter
;WIDTH:0.417348
G1 F1098
G1 X112.25 Y93.595 E.84084
; stop printing object derjak1.STL id:0 copy 0
;LAYER_CHANGE
;Z:0.84
;HEIGHT:0.16
;BEFORE_LAYER_CHANGE
G92 E0
;0.84


;WIPE_START
G1 F7200
G1 X112.25 Y96.795 E-.76
;WIPE_END
G1 E-.04 F1800
G1 Z.84 F9000
;AFTER_LAYER_CHANGE
;0.84
; printing object derjak1.STL id:0 copy 0
G1 X111.856 Y93.198
G1 E.8 F1800
;WIDTH:0.439999
G1 F1078
G1 X112.644 Y93.198 E.02128
G1 X112.644 Y126.99 E.91185
G1 X111.856 Y126.99 E.02128
G1 X111.856 Y93.258 E.91023
G1 X111.46 Y92.803 F9000
;TYPE:External perimeter
;WIDTH:0.419999
G1 F1078
G1 X113.04 Y92.803 E.04053
G1 X113.04 Y127.385 E.8872
G1 X111.46 Y127.385 E.04053
G1 X111.46 Y92.863 E.88566
G1 X111.809 Y92.997 F9000
;WIPE_START
G1 F7200
G1 X113.04 Y92.803 E-.37552
G1 X113.04 Y94.422 E-.38448
;WIPE_END
G1 E-.04 F1800
G1 X112.25 Y93.593 F9000
G1 E.8 F1800
;TYPE:Perimeter
;WIDTH:0.417348
G1 F1078
G1 X112.25 Y126.595 E.84084
;WIPE_START
G1 F7200
G1 X112.25 Y123.395 E-.76
;WIPE_END
G1 E-.04 F1800
G1 X108.144 Y126.99 F9000
G1 E.8 F1800
;WIDTH:0.439999
G1 F1078
G1 X107.356 Y126.99 E.02128
G1 X107.356 Y93.198 E.91185
G1 X108.144 Y93.198 E.02128
G1 X108.144 Y126.93 E.91023
G1 X108.54 Y127.385 F9000
;TYPE:External perimeter
;WIDTH:0.419999
G1 F1078
G1 X106.96 Y127.385 E.04053
G1 X106.96 Y92.803 E.8872
G1 X108.54 Y92.803 E.04053
G1 X108.54 Y127.325 E.88566
G1 X108.191 Y127.191 F9000
;WIPE_START
G1 F7200
G1 X106.96 Y127.385 E-.37552
G1 X106.96 Y125.767 E-.38448
;WIPE_END
G1 E-.04 F1800
G1 X107.75 Y126.595 F9000
G1 E.8 F1800
;TYPE:Perimeter
;WIDTH:0.417348
G1 F1078
G1 X107.75 Y93.593 E.84084
; stop printing object derjak1.STL id:0 copy 0
;LAYER_CHANGE
;Z:1
;HEIGHT:0.16
;BEFORE_LAYER_CHANGE
G92 E0
;1


;WIPE_START
G1 F7200
G1 X107.75 Y96.793 E-.76
;WIPE_END
G1 E-.04 F1800
G1 Z1 F9000
;AFTER_LAYER_CHANGE
;1
; printing object derjak1.STL id:0 copy 0
G1 X111.856 Y93.196
G1 E.8 F1800
;WIDTH:0.439999
G1 F1098
G1 X112.644 Y93.196 E.02128
G1 X112.644 Y126.988 E.91185
G1 X111.856 Y126.988 E.02128
G1 X111.856 Y93.256 E.91023
G1 X111.46 Y92.801 F9000
;TYPE:External perimeter
;WIDTH:0.419999
G1 F1098
G1 X113.04 Y92.801 E.04053
G1 X113.04 Y127.383 E.8872
G1 X111.46 Y127.383 E.04053
G1 X111.46 Y92.861 E.88566
G1 X111.809 Y92.996 F9000
;WIPE_START
G1 F7200
G1 X113.04 Y92.801 E-.37552
G1 X113.04 Y94.42 E-.38448
;WIPE_END
G1 E-.04 F1800
G1 X112.25 Y126.593 F9000
G1 E.8 F1800
;TYPE:Perimeter
;WIDTH:0.417348
G1 F1098
G1 X112.25 Y93.591 E.84084
;WIPE_START
G1 F7200
G1 X112.25 Y96.791 E-.76
;WIPE_END
G1 E-.04 F1800
G1 X108.144 Y93.196 F9000
G1 E.8 F1800
;WIDTH:0.439999
G1 F1098
G1 X108.144 Y126.988 E.91185
G1 X107.356 Y126.988 E.02128
G1 X107.356 Y93.196 E.91185
G1 X108.084 Y93.196 E.01966
G1 X108.54 Y92.801 F9000
;TYPE:External perimeter
;WIDTH:0.419999
G1 F1098
G1 X108.54 Y127.383 E.8872
G1 X106.96 Y127.383 E.04053
G1 X106.96 Y92.801 E.8872
G1 X108.48 Y92.801 E.03899
G1 X108.534 Y93.201 F9000
;WIPE_START
G1 F7200
G1 X108.486 Y96.001 E-.76
;WIPE_END
G1 E-.04 F1800
G1 X107.75 Y126.593 F9000
G1 E.8 F1800
;TYPE:Perimeter
;WIDTH:0.417348
G1 F1098
G1 X107.75 Y93.591 E.84084
; stop printing object derjak1.STL id:0 copy 0
;LAYER_CHANGE
;Z:1.16
;HEIGHT:0.16
;BEFORE_LAYER_CHANGE
G92 E0
;1.16


;WIPE_START
G1 F7200
G1 X107.75 Y96.791 E-.76
;WIPE_END
G1 E-.04 F1800
G1 Z1.16 F9000
;AFTER_LAYER_CHANGE
;1.16
; printing object derjak1.STL id:0 copy 0
G1 X108.144 Y93.195
G1 E.8 F1800
;WIDTH:0.439999
G1 F1097
G1 X108.144 Y126.986 E.91185
G1 X107.356 Y126.986 E.02128
G1 X107.356 Y93.195 E.91185
G1 X108.084 Y93.195 E.01966
G1 X108.54 Y92.799 F9000
;TYPE:External perimeter
;WIDTH:0.419999
G1 F1097
G1 X108.54 Y127.381 E.8872
G1 X106.96 Y127.381 E.04053
G1 X106.96 Y92.799 E.8872
G1 X108.48 Y92.799 E.03899
G1 X108.534 Y93.199 F9000
;WIPE_START
G1 F7200
G1 X108.486 Y95.999 E-.76
;WIPE_END
G1 E-.04 F1800
G1 X107.75 Y126.591 F9000
G1 E.8 F1800
;TYPE:Perimeter
;WIDTH:0.417348
G1 F1097
G1 X107.75 Y93.589 E.84084
;WIPE_START
G1 F7200
G1 X107.75 Y96.789 E-.76
;WIPE_END
G1 E-.04 F1800
G1 X111.856 Y93.195 F9000
G1 E.8 F1800
;WIDTH:0.439999
G1 F1097
G1 X112.644 Y93.195 E.02128
G1 X112.644 Y126.986 E.91185
G1 X111.856 Y126.986 E.02128
G1 X111.856 Y93.255 E.91023
G1 X111.46 Y92.799 F9000
;TYPE:External perimeter
;WIDTH:0.419999
G1 F1097
G1 X113.04 Y92.799 E.04053
G1 X113.04 Y127.381 E.8872
G1 X111.46 Y127.381 E.04053
G1 X111.46 Y92.859 E.88566
G1 X111.809 Y92.994 F9000
;WIPE_START
G1 F7200
G1 X113.04 Y92.799 E-.37552
G1 X113.04 Y94.418 E-.38448
;WIPE_END
G1 E-.04 F1800
G1 X112.25 Y126.591 F9000
G1 E.8 F1800
;TYPE:Perimeter
;WIDTH:0.417348
G1 F1097
G1 X112.25 Y93.589 E.84084
; stop printing object derjak1.STL id:0 copy 0
;LAYER_CHANGE
;Z:1.32
;HEIGHT:0.16
;BEFORE_LAYER_CHANGE
G92 E0
;1.32


;WIPE_START
G1 F7200
G1 X112.25 Y96.789 E-.76
;WIPE_END
G1 E-.04 F1800
G1 Z1.32 F9000
;AFTER_LAYER_CHANGE
;1.32
; printing object derjak1.STL id:0 copy 0
G1 X108.144 Y93.193
G1 E.8 F1800
;WIDTH:0.439999
G1 F1086
G1 X108.144 Y126.984 E.91185
G1 X107.356 Y126.984 E.02128
G1 X107.356 Y93.193 E.91185
G1 X108.084 Y93.193 E.01966
G1 X108.54 Y92.797 F9000
;TYPE:External perimeter
;WIDTH:0.419999
G1 F1086
G1 X108.54 Y127.38 E.8872
G1 X106.96 Y127.38 E.04053
G1 X106.96 Y92.797 E.8872
G1 X108.48 Y92.797 E.03899
G1 X108.534 Y93.197 F9000
;WIPE_START
G1 F7200
G1 X108.486 Y95.997 E-.76
;WIPE_END
G1 E-.04 F1800
G1 X107.75 Y126.59 F9000
G1 E.8 F1800
;TYPE:Perimeter
;WIDTH:0.417348
G1 F1086
G1 X107.75 Y93.587 E.84084
;WIPE_START
G1 F7200
G1 X107.75 Y96.787 E-.76
;WIPE_END
G1 E-.04 F1800
G1 X111.856 Y93.193 F9000
G1 E.8 F1800
;WIDTH:0.439999
G1 F1086
G1 X112.644 Y93.193 E.02128
G1 X112.644 Y126.984 E.91185
G1 X111.856 Y126.984 E.02128
G1 X111.856 Y93.253 E.91023
G1 X111.46 Y92.797 F9000
;TYPE:External perimeter
;WIDTH:0.419999
G1 F1086
G1 X113.04 Y92.797 E.04053
G1 X113.04 Y127.38 E.8872
G1 X111.46 Y127.38 E.04053
G1 X111.46 Y92.857 E.88566
G1 X111.809 Y92.992 F9000
;WIPE_START
G1 F7200
G1 X113.04 Y92.797 E-.37552
G1 X113.04 Y94.416 E-.38448
;WIPE_END
G1 E-.04 F1800
G1 X112.25 Y93.587 F9000
G1 E.8 F1800
;TYPE:Perimeter
;WIDTH:0.417348
G1 F1086
G1 X112.25 Y126.59 E.84084
; stop printing object derjak1.STL id:0 copy 0
;LAYER_CHANGE
;Z:1.48
;HEIGHT:0.16
;BEFORE_LAYER_CHANGE
G92 E0
;1.48


;WIPE_START
G1 F7200
G1 X112.25 Y123.39 E-.76
;WIPE_END
G1 E-.04 F1800
G1 Z1.48 F9000
;AFTER_LAYER_CHANGE
;1.48
; printing object derjak1.STL id:0 copy 0
G1 X111.856 Y126.982
G1 E.8 F1800
;WIDTH:0.439999
G1 F1083
G1 X111.856 Y93.191 E.91185
G1 X112.644 Y93.191 E.02128
G1 X112.644 Y126.982 E.91185
G1 X111.916 Y126.982 E.01966
G1 X111.46 Y127.378 F9000
;TYPE:External perimeter
;WIDTH:0.419999
G1 F1083
G1 X111.46 Y92.795 E.8872
G1 X113.04 Y92.795 E.04053
G1 X113.04 Y127.378 E.8872
G1 X111.52 Y127.378 E.03899
