; generated by PrusaSlicer 2.5.0+win64 on 2023-06-08 at 07:56:04 UTC

; 

; external perimeters extrusion width = 0.42mm
; perimeters extrusion width = 0.44mm
; infill extrusion width = 0.44mm
; solid infill extrusion width = 0.44mm
; top infill extrusion width = 0.40mm
; first layer extrusion width = 0.42mm

M201 X500 Y500 Z100 E5000 ; sets maximum accelerations, mm/sec^2
M203 X500 Y500 Z10 E60 ; sets maximum feedrates, mm / sec
M204 P500 R1000 T500 ; sets acceleration (P, T) and retract acceleration (R), mm/sec^2
M205 X8.00 Y8.00 Z0.40 E5.00 ; sets the jerk limits, mm/sec
M205 S0 T0 ; sets the minimum extruding and travel feed rate, mm/sec
M107
;TYPE:Custom
G90 ; use absolute coordinates
M83 ; extruder relative mode
M104 S150 ; set temporary nozzle temp to prevent oozing during homing
M140 S60 ; set final bed temp
G4 S30 ; allow partial nozzle warmup
G28 ; home all axis and restore leveling
G1 Z50 F240
G1 X2.0 Y10 F3000
M104 S215 ; set final nozzle temp
M190 S60 ; wait for bed temp to stabilize
M109 S215 ; wait for nozzle temp to stabilize
G1 Z0.28 F240
G92 E0
G1 X2.0 Y140 E10 F1500 ; prime the nozzle
G1 X2.3 Y140 F5000
G92 E0
G1 X2.3 Y10 E10 F1200 ; prime the nozzle
G92 E0
G21 ; set units to millimeters
G90 ; use absolute coordinates
M83 ; use relative distances for extrusion
; Filament gcode
M107
;LAYER_CHANGE
;Z:0.2
;HEIGHT:0.2
;BEFORE_LAYER_CHANGE
G92 E0
;0.2


G1 E-.8 F1800
G1 Z.2 F9000
;AFTER_LAYER_CHANGE
;0.2
G1 X68.107 Y81.203
G1 E.8 F1800
M204 S500
;TYPE:Skirt/Brim
;WIDTH:0.42
G1 F1200
G1 X70 Y80.623 E.06207
G1 X150 Y80.623 E2.50834
G1 X151.583 Y81.017 E.05115
G1 X152.797 Y82.107 E.05115
G1 X153.377 Y84 E.06207
G1 X153.377 Y126 E1.31688
G1 X152.983 Y127.583 E.05115
G1 X152.448 Y128.326 E.0287
G1 X142.948 Y138.326 E.43247
G1 X141.572 Y139.202 E.05115
G1 X140.5 Y139.377 E.03406
G1 X79.5 Y139.377 E1.91261
G1 X77.917 Y138.983 E.05115
G1 X77.052 Y138.326 E.03406
G1 X67.552 Y128.326 E.43247
G1 X66.747 Y126.907 E.05115
G1 X66.623 Y126 E.0287
G1 X66.623 Y84 E1.31688
G1 X67.017 Y82.417 E.05115
G1 X68.067 Y81.248 E.04927
; printing object крышка2.STL id:0 copy 0
;WIPE_START
G1 F7200
G1 X70 Y80.623 E-.48244
G1 X71.169 Y80.623 E-.27756
;WIPE_END
G1 E-.04 F1800
G1 X71.064 Y85.064 F9000
G1 E.8 F1800
;TYPE:Perimeter
;WIDTH:0.419999
G1 F1200
G1 X148.936 Y85.064 E2.44161
G1 X148.936 Y99.208 E.44347
G1 X148.936 Y124.936 E.80668
G1 X140.379 Y124.936 E.26831
G1 X140.025 Y125.004 E.01128
G1 X139.722 Y125.202 E.01134
G1 X139.507 Y125.519 E.01202
G1 X139.436 Y125.879 E.01149
G1 X139.436 Y131.115 E.16419
G1 X139.46 Y132.065 E.02978
;WIDTH:0.419004
G1 X139.436 Y133.035 E.03035
;WIDTH:0.419999
G1 X139.436 Y134.936 E.0596
G1 X137.505 Y134.936 E.06054
G1 X136.554 Y134.96 E.02982
;WIDTH:0.419187
G1 X135.589 Y134.936 E.03019
;WIDTH:0.419999
G1 X133.564 Y134.936 E.0635
G1 X133.564 Y133.126 E.05676
G1 X133.541 Y132.173 E.02989
;WIDTH:0.418355
G1 X133.563 Y131.213 E.02998
;WIDTH:0.419999
G1 X133.564 Y125.879 E.16725
G1 X133.493 Y125.519 E.01149
G1 X133.278 Y125.202 E.01202
G1 X132.975 Y125.004 E.01134
G1 X132.621 Y124.936 E.01128
G1 X87.379 Y124.936 E1.41856
G1 X87.026 Y125.004 E.01128
G1 X86.722 Y125.202 E.01134
G1 X86.507 Y125.519 E.01202
G1 X86.436 Y125.879 E.01149
G1 X86.436 Y131.115 E.16419
G1 X86.46 Y132.065 E.02978
;WIDTH:0.419006
G1 X86.436 Y133.035 E.03035
;WIDTH:0.419999
G1 X86.436 Y134.936 E.0596
G1 X84.505 Y134.936 E.06054
G1 X83.554 Y134.96 E.02982
;WIDTH:0.419187
G1 X82.589 Y134.936 E.03019
;WIDTH:0.419999
G1 X80.564 Y134.936 E.0635
G1 X80.564 Y133.126 E.05676
G1 X80.541 Y132.173 E.02989
;WIDTH:0.418356
G1 X80.563 Y131.213 E.02998
;WIDTH:0.419999
G1 X80.564 Y125.879 E.16725
G1 X80.493 Y125.519 E.01149
G1 X80.278 Y125.202 E.01202
G1 X79.974 Y125.004 E.01134
G1 X79.621 Y124.936 E.01128
G1 X71.064 Y124.936 E.26831
G1 X71.064 Y85.124 E1.24827
G1 X70.687 Y84.687 F9000
G1 F1200
G1 X149.313 Y84.687 E2.46525
G1 X149.313 Y125.313 E1.27379
G1 X140.379 Y125.313 E.28013
G1 X140.25 Y125.328 E.00407
G1 X140.023 Y125.439 E.00791
G1 X139.856 Y125.663 E.00877
G1 X139.813 Y125.879 E.0069
G1 X139.813 Y135.313 E.29581
G1 X133.187 Y135.313 E.20775
G1 X133.175 Y125.764 E.29939
G1 X133.102 Y125.581 E.00619
G1 X132.89 Y125.381 E.00916
G1 X132.621 Y125.313 E.00867
G1 X87.273 Y125.323 E1.42187
G1 X87.023 Y125.439 E.00863
G1 X86.856 Y125.663 E.00877
G1 X86.813 Y125.879 E.0069
G1 X86.813 Y135.313 E.29581
G1 X80.187 Y135.313 E.20775
G1 X80.187 Y126.403 E.27936
G1 X80.175 Y125.764 E.02003
G1 X80.102 Y125.581 E.00619
G1 X79.89 Y125.381 E.00916
G1 X79.621 Y125.313 E.00867
G1 X70.687 Y125.313 E.28013
G1 X70.687 Y84.747 E1.27191
G1 X70.31 Y84.31 F9000
;TYPE:External perimeter
G1 F1200
G1 X149.69 Y84.31 E2.4889
G1 X149.69 Y125.69 E1.29744
G1 X140.379 Y125.69 E.29195
G1 X140.26 Y125.732 E.00394
G1 X140.19 Y125.879 E.0051
G1 X140.19 Y135.69 E.30763
G1 X132.81 Y135.69 E.23139
G1 X132.81 Y125.879 E.30763
G1 X132.767 Y125.759 E.004
G1 X132.621 Y125.69 E.00504
G1 X87.379 Y125.69 E1.41856
G1 X87.26 Y125.732 E.00394
G1 X87.19 Y125.879 E.0051
G1 X87.19 Y135.69 E.30763
G1 X79.81 Y135.69 E.23139
G1 X79.81 Y125.879 E.30763
G1 X79.767 Y125.759 E.004
G1 X79.621 Y125.69 E.00504
G1 X70.31 Y125.69 E.29195
G1 X70.31 Y84.37 E1.29556
G1 X70.67 Y84.484 F9000
;WIPE_START
G1 F7200
G1 X73.51 Y84.368 E-.76
;WIPE_END
G1 E-.04 F1800
G1 X121.047 Y92.829 F9000
G1 E.8 F1800
;TYPE:Perimeter
G1 F1200
G1 X121.035 Y92.922 E.00293
G1 X120.98 Y93.069 E.0049
G1 X121.063 Y93.407 E.01093
G1 X121.064 Y95.69 E.07158
G1 X120.99 Y96.056 E.01169
G1 X120.808 Y96.336 E.0105
G1 X120.595 Y96.505 E.00852
G1 X120.273 Y96.621 E.01073
G1 X99.879 Y96.633 E.63945
G1 X99.535 Y96.568 E.01095
G1 X99.224 Y96.368 E.01161
G1 X99.03 Y96.101 E.01033
G1 X98.938 Y95.751 E.01135
G1 X98.936 Y93.447 E.07224
G1 X98.965 Y93.215 E.00734
G1 X99.02 Y93.069 E.0049
G1 X98.937 Y92.73 E.01093
G1 X98.936 Y90.447 E.07158
G1 X98.974 Y90.183 E.00836
G1 X99.124 Y89.882 E.01057
G1 X99.435 Y89.615 E.01282
G1 X99.716 Y89.519 E.00931
G1 X99.879 Y89.505 E.00513
G1 X120.121 Y89.505 E.6347
G1 X120.354 Y89.534 E.00733
G1 X120.565 Y89.615 E.00711
G1 X120.876 Y89.882 E.01282
G1 X121.026 Y90.183 E.01057
G1 X121.064 Y90.447 E.00836
G1 X121.054 Y92.77 E.07283
G1 X120.426 Y93.069 F9000
G1 F1200
G1 X120.626 Y93.191 E.00733
G1 X120.687 Y93.447 E.00826
G1 X120.687 Y95.69 E.07033
G1 X120.617 Y95.963 E.00884
G1 X120.43 Y96.164 E.00862
G1 X120.152 Y96.255 E.00916
G1 X99.879 Y96.256 E.63566
G1 X99.619 Y96.193 E.00836
G1 X99.414 Y96.013 E.00857
G1 X99.317 Y95.761 E.00845
G1 X99.313 Y93.447 E.07254
G1 X99.374 Y93.191 E.00826
G1 X99.555 Y93.069 E.00685
G1 X99.374 Y92.946 E.00685
G1 X99.313 Y92.69 E.00826
G1 X99.313 Y90.447 E.07033
G1 X99.37 Y90.199 E.00798
G1 X99.507 Y90.021 E.00704
G1 X99.781 Y89.89 E.00953
G1 X120.121 Y89.882 E.63777
G1 X120.388 Y89.948 E.0086
G1 X120.574 Y90.108 E.00769
G1 X120.682 Y90.372 E.00895
G1 X120.687 Y92.69 E.07268
G1 X120.626 Y92.946 E.00826
G1 X120.478 Y93.037 E.00545
G1 X120.121 Y93.258 F9000
;TYPE:External perimeter
;WIDTH:0.42146
G1 F1200
G1 X120.304 Y93.401 E.0073
;WIDTH:0.419999
G1 X120.31 Y95.69 E.07178
G1 X120.246 Y95.832 E.00487
G1 X120.216 Y95.853 E.00115
G1 X120.121 Y95.879 E.00308
G1 X99.879 Y95.879 E.6347
G1 X99.735 Y95.813 E.00495
G1 X99.69 Y95.69 E.00409
G1 X99.69 Y93.447 E.07033
G1 X99.71 Y93.362 E.00275
;WIDTH:0.42146
G1 X99.879 Y93.258 E.00622
G1 X120.061 Y93.258 E.63527
G1 X120.312 Y93.126 F9000
G1 X120.121 Y92.879
G1 F1200
G1 X99.879 Y92.879 E.63716
G1 X99.71 Y92.776 E.00622
;WIDTH:0.419999
G1 X99.69 Y92.69 E.00275
G1 X99.69 Y90.447 E.07033
G1 X99.755 Y90.305 E.00489
G1 X99.879 Y90.259 E.00415
G1 X120.121 Y90.259 E.6347
G1 X120.245 Y90.305 E.00415
G1 X120.31 Y90.447 E.00489
G1 X120.31 Y92.699 E.0706
G1 X120.29 Y92.776 E.00249
;WIDTH:0.42146
G1 X120.172 Y92.848 E.00433
;WIPE_START
G1 F7200
G1 X116.973 Y92.853 E-.76
;WIPE_END
G1 E-.04 F1800
G1 X134.101 Y133.139 F9000
G1 E.8 F1800
;TYPE:Perimeter
;WIDTH:0.419999
G1 F1200
G1 X133.903 Y132.491 E.02123
;WIDTH:0.395187
G1 X133.873 Y132.18 E.00916
;WIDTH:0.386897
G1 X133.891 Y131.598 E.01665
;WIDTH:0.418355
G1 X133.943 Y131.286 E.00987
;WIDTH:0.419999
G1 X134.159 Y130.746 E.01825
G1 X134.326 Y130.474 E.00999
G1 X134.711 Y130.037 E.01825
G1 X134.959 Y129.837 E.00999
G1 X135.467 Y129.553 E.01825
G1 X135.761 Y129.448 E.00982
G1 X136.297 Y129.353 E.01705
G1 X136.852 Y129.362 E.01741
G1 X137.654 Y129.608 E.02629
G1 X137.932 Y129.763 E.00999
G1 X138.385 Y130.129 E.01825
G1 X138.595 Y130.368 E.00999
G1 X138.9 Y130.864 E.01825
G1 X139.019 Y131.159 E.00999
G1 X139.122 Y131.733 E.01826
;WIDTH:0.380099
G1 X139.137 Y131.927 E.00547
;WIDTH:0.40936
G1 X139.076 Y132.623 E.0213
;WIDTH:0.419004
G1 X138.988 Y132.928 E.00993
;WIDTH:0.419999
G1 X138.726 Y133.448 E.01824
G1 X138.399 Y133.866 E.01664
G1 X137.737 Y134.35 E.02571
G1 X137.447 Y134.481 E.00999
G1 X136.879 Y134.612 E.01826
;WIDTH:0.38766
G1 X136.568 Y134.631 E.00894
;WIDTH:0.396859
G1 X135.987 Y134.594 E.01713
;WIDTH:0.419187
G1 X135.678 Y134.525 E.00991
;WIDTH:0.419999
G1 X135.147 Y134.286 E.01825
G1 X134.884 Y134.107 E.00999
G1 X134.463 Y133.705 E.01824
G1 X134.16 Y133.269 E.01664
G1 X134.125 Y133.193 E.00262
G1 X134.458 Y133.005 F9000
G1 F1200
G1 X134.422 Y132.941 E.00232
G1 X134.251 Y132.384 E.01825
G1 X134.227 Y132.195 E.00599
G1 X134.252 Y131.613 E.01825
G1 X134.509 Y130.886 E.02418
G1 X134.994 Y130.287 E.02418
G1 X135.651 Y129.883 E.02418
G1 X136.363 Y129.724 E.02288
G1 X136.828 Y129.738 E.01458
G1 X137.528 Y129.963 E.02307
G1 X138.148 Y130.422 E.02418
G1 X138.579 Y131.061 E.02418
G1 X138.773 Y131.808 E.02418
G1 X138.786 Y131.927 E.00376
G1 X138.707 Y132.576 E.0205
G1 X138.652 Y132.759 E.00599
G1 X138.39 Y133.278 E.01824
G1 X138.101 Y133.634 E.01436
G1 X137.526 Y134.038 E.02203
G1 X136.789 Y134.263 E.02418
G1 X136.598 Y134.279 E.00599
G1 X136.018 Y134.23 E.01825
G1 X135.303 Y133.942 E.02418
G1 X134.884 Y133.586 E.01724
G1 X134.634 Y133.321 E.01142
G1 X134.487 Y133.058 E.00945
G1 X134.782 Y132.83 F9000
;TYPE:External perimeter
G1 F1200
G1 X134.612 Y132.274 E.01825
G1 X134.628 Y131.629 E.02022
G1 X134.859 Y131.027 E.02022
G1 X135.277 Y130.536 E.02022
G1 X135.834 Y130.212 E.02022
G1 X136.429 Y130.096 E.01899
G1 X136.854 Y130.125 E.01335
G1 X137.403 Y130.319 E.01826
G1 X137.911 Y130.716 E.02022
G1 X138.258 Y131.259 E.02022
G1 X138.409 Y131.927 E.02146
G1 X138.333 Y132.528 E.019
G1 X138.053 Y133.109 E.02021
G1 X137.797 Y133.399 E.01214
G1 X137.315 Y133.725 E.01825
G1 X136.694 Y133.898 E.02022
G1 X136.05 Y133.854 E.02022
G1 X135.458 Y133.598 E.02022
G1 X134.985 Y133.16 E.02021
G1 X134.814 Y132.881 E.01026
G1 X134.384 Y132.796 F9000
;WIPE_START
G1 F7200
G1 X134.612 Y132.274 E-.15206
G1 X134.628 Y131.629 E-.15317
G1 X134.859 Y131.027 E-.15316
G1 X135.277 Y130.536 E-.15317
G1 X135.817 Y130.222 E-.14845
;WIPE_END
G1 E-.04 F1800
G1 X85.642 Y133.556 F9000
G1 E.8 F1800
;TYPE:Perimeter
G1 F1200
G1 X85.399 Y133.866 E.01236
G1 X84.737 Y134.35 E.02571
G1 X84.447 Y134.481 E.00999
G1 X83.879 Y134.612 E.01826
;WIDTH:0.38766
G1 X83.568 Y134.631 E.00894
;WIDTH:0.396859
G1 X82.987 Y134.594 E.01713
;WIDTH:0.419187
G1 X82.678 Y134.525 E.00991
;WIDTH:0.419999
G1 X82.147 Y134.286 E.01825
G1 X81.884 Y134.107 E.00999
G1 X81.463 Y133.705 E.01824
G1 X81.16 Y133.269 E.01664
G1 X81.061 Y133.051 E.00751
G1 X80.903 Y132.491 E.01825
;WIDTH:0.395193
G1 X80.873 Y132.18 E.00916
;WIDTH:0.386905
G1 X80.891 Y131.598 E.01665
;WIDTH:0.418356
G1 X80.943 Y131.286 E.00987
;WIDTH:0.419999
G1 X81.159 Y130.746 E.01825
G1 X81.326 Y130.474 E.00999
G1 X81.711 Y130.037 E.01825
G1 X81.959 Y129.837 E.00999
G1 X82.467 Y129.553 E.01825
G1 X82.761 Y129.448 E.00982
G1 X83.297 Y129.353 E.01705
G1 X83.852 Y129.362 E.01741
G1 X84.654 Y129.608 E.02629
G1 X84.932 Y129.763 E.00999
G1 X85.385 Y130.129 E.01825
G1 X85.595 Y130.368 E.00999
G1 X85.9 Y130.864 E.01825
G1 X86.019 Y131.159 E.00999
G1 X86.122 Y131.733 E.01826
;WIDTH:0.380107
G1 X86.132 Y132.044 E.00873
;WIDTH:0.409368
G1 X86.076 Y132.623 E.01774
;WIDTH:0.419006
G1 X85.988 Y132.928 E.00993
;WIDTH:0.419999
G1 X85.726 Y133.448 E.01824
G1 X85.679 Y133.508 E.0024
G1 X85.343 Y133.336 F9000
G1 F1200
G1 X85.101 Y133.634 E.01204
G1 X84.526 Y134.038 E.02203
G1 X83.789 Y134.263 E.02418
G1 X83.598 Y134.279 E.00599
G1 X83.018 Y134.23 E.01825
G1 X82.303 Y133.942 E.02418
G1 X81.884 Y133.586 E.01724
G1 X81.634 Y133.321 E.01142
G1 X81.422 Y132.941 E.01364
G1 X81.251 Y132.384 E.01825
G1 X81.227 Y132.195 E.00599
G1 X81.252 Y131.613 E.01825
G1 X81.509 Y130.886 E.02418
G1 X81.994 Y130.287 E.02418
G1 X82.651 Y129.883 E.02418
G1 X83.363 Y129.724 E.02288
G1 X83.828 Y129.738 E.01458
G1 X84.528 Y129.963 E.02307
G1 X85.148 Y130.422 E.02418
G1 X85.579 Y131.061 E.02418
G1 X85.773 Y131.808 E.02418
G1 X85.781 Y131.999 E.00599
G1 X85.707 Y132.576 E.01825
G1 X85.652 Y132.759 E.00599
G1 X85.381 Y133.289 E.01867
G1 X85.053 Y133.109 F9000
;TYPE:External perimeter
G1 F1200
G1 X84.797 Y133.399 E.01214
G1 X84.315 Y133.725 E.01825
G1 X83.694 Y133.898 E.02022
G1 X83.05 Y133.854 E.02022
G1 X82.458 Y133.598 E.02022
G1 X81.985 Y133.16 E.02021
G1 X81.782 Y132.83 E.01214
G1 X81.612 Y132.274 E.01825
G1 X81.628 Y131.629 E.02022
G1 X81.859 Y131.027 E.02022
G1 X82.277 Y130.536 E.02022
G1 X82.834 Y130.212 E.02022
G1 X83.429 Y130.096 E.01899
G1 X83.854 Y130.125 E.01335
G1 X84.403 Y130.319 E.01826
G1 X84.911 Y130.716 E.02022
G1 X85.258 Y131.259 E.02022
G1 X85.405 Y131.887 E.02022
G1 X85.333 Y132.528 E.02022
G1 X85.079 Y133.055 E.01833
G1 X85.229 Y133.453 F9000
;WIPE_START
G1 F7200
G1 X84.797 Y133.399 E-.10578
G1 X84.315 Y133.725 E-.13823
G1 X83.694 Y133.898 E-.15316
G1 X83.05 Y133.854 E-.15316
G1 X82.458 Y133.598 E-.15317
G1 X82.284 Y133.437 E-.0565
;WIPE_END
G1 E-.04 F1800
G1 X86.316 Y133.966 F9000
G1 E.8 F1800
;TYPE:Solid infill
;WIDTH:0.437449
G1 F1200
G1 X85.963 Y133.613 E.01635
G1 X85.726 Y133.934 E.01308
G1 X86.146 Y134.354 E.01949
G1 X86.146 Y134.646 E.00956
G1 X85.879 Y134.646 E.00874
G1 X85.446 Y134.212 E.02012
G1 X85.119 Y134.443 E.01313
G1 X85.491 Y134.815 E.01728
;WIPE_START
G1 F7200
G1 X85.119 Y134.443 E-.12511
G1 X85.446 Y134.212 E-.09508
G1 X85.879 Y134.646 E-.1457
G1 X86.146 Y134.646 E-.06324
G1 X86.146 Y134.354 E-.06923
G1 X85.726 Y133.934 E-.14111
G1 X85.963 Y133.613 E-.09473
G1 X86.04 Y133.69 E-.0258
;WIPE_END
G1 E-.04 F1800
G1 X81.754 Y134.816 F9000
G1 E.8 F1800
;WIDTH:0.495415
G1 F1200
G1 X80.854 Y133.916 E.04788
G1 X80.854 Y134.556 E.02408
G1 X81.114 Y134.815 E.01382
;WIPE_START
G1 F7200
G1 X80.854 Y134.556 E-.08722
G1 X80.854 Y133.916 E-.15198
G1 X81.754 Y134.816 E-.30225
;WIPE_END
G1 E-.25854 F1800
G1 X134.754 Y134.816 F9000
G1 E.8 F1800
G1 F1200
G1 X133.855 Y133.916 E.04788
G1 X133.854 Y134.556 E.02408
G1 X134.114 Y134.815 E.01382
;WIPE_START
G1 F7200
G1 X133.854 Y134.556 E-.08722
G1 X133.855 Y133.916 E-.15198
G1 X134.754 Y134.816 E-.30225
;WIPE_END
G1 E-.25855 F1800
G1 X139.316 Y133.966 F9000
G1 E.8 F1800
;WIDTH:0.437444
G1 F1200
G1 X138.963 Y133.613 E.01635
G1 X138.726 Y133.934 E.01308
G1 X139.146 Y134.354 E.01949
G1 X139.146 Y134.646 E.00956
G1 X138.879 Y134.646 E.00874
G1 X138.446 Y134.212 E.02012
G1 X138.119 Y134.443 E.01313
G1 X138.491 Y134.815 E.01728
;WIPE_START
G1 F7200
G1 X138.119 Y134.443 E-.12511
G1 X138.446 Y134.212 E-.09508
G1 X138.879 Y134.646 E-.14569
G1 X139.146 Y134.646 E-.06324
G1 X139.146 Y134.354 E-.06923
G1 X138.726 Y133.934 E-.14111
G1 X138.963 Y133.613 E-.09473
G1 X139.04 Y133.69 E-.02581
;WIPE_END
G1 E-.04 F1800
G1 X148.053 Y85.185 F9000
G1 E.8 F1800
;WIDTH:0.420052
G1 F1200
G1 X148.646 Y85.777 E.02628
G1 X148.646 Y86.311 E.01672
G1 X147.689 Y85.354 E.04241
G1 X147.156 Y85.354 E.01672
G1 X148.646 Y86.844 E.06607
G1 X148.646 Y87.378 E.01672
G1 X146.622 Y85.354 E.08972
G1 X146.089 Y85.354 E.01672
G1 X148.646 Y87.911 E.11337
G1 X148.646 Y88.444 E.01673
G1 X145.556 Y85.354 E.13702
G1 X145.022 Y85.354 E.01673
G1 X148.646 Y88.978 E.16068
G1 X148.646 Y89.511 E.01672
G1 X144.489 Y85.354 E.18433
G1 X143.956 Y85.354 E.01672
G1 X148.646 Y90.044 E.20798
G1 X148.646 Y90.578 E.01672
G1 X143.422 Y85.354 E.23163
G1 X142.889 Y85.354 E.01672
G1 X148.646 Y91.111 E.25529
G1 X148.646 Y91.644 E.01672
G1 X142.356 Y85.354 E.27894
