; generated by PrusaSlicer 2.5.0+win64 on 2023-06-07 at 16:06:01 UTC

; 

; external perimeters extrusion width = 0.42mm
; perimeters extrusion width = 0.44mm
; infill extrusion width = 0.44mm
; solid infill extrusion width = 0.44mm
; top infill extrusion width = 0.40mm
; first layer extrusion width = 0.42mm

M201 X500 Y500 Z100 E5000 ; sets maximum accelerations, mm/sec^2
M203 X500 Y500 Z10 E60 ; sets maximum feedrates, mm / sec
M204 P500 R1000 T500 ; sets acceleration (P, T) and retract acceleration (R), mm/sec^2
M205 X8.00 Y8.00 Z0.40 E5.00 ; sets the jerk limits, mm/sec
M205 S0 T0 ; sets the minimum extruding and travel feed rate, mm/sec
M107
;TYPE:Custom
G90 ; use absolute coordinates
M83 ; extruder relative mode
M104 S150 ; set temporary nozzle temp to prevent oozing during homing
M140 S60 ; set final bed temp
G4 S30 ; allow partial nozzle warmup
G28 ; home all axis and restore leveling
G1 Z50 F240
G1 X2.0 Y10 F3000
M104 S215 ; set final nozzle temp
M190 S60 ; wait for bed temp to stabilize
M109 S215 ; wait for nozzle temp to stabilize
G1 Z0.28 F240
G92 E0
G1 X2.0 Y140 E10 F1500 ; prime the nozzle
G1 X2.3 Y140 F5000
G92 E0
G1 X2.3 Y10 E10 F1200 ; prime the nozzle
G92 E0
G21 ; set units to millimeters
G90 ; use absolute coordinates
M83 ; use relative distances for extrusion
; Filament gcode
M107
;LAYER_CHANGE
;Z:0.2
;HEIGHT:0.2
;BEFORE_LAYER_CHANGE
G92 E0
;0.2


G1 E-.8 F1800
G1 Z.2 F9000
;AFTER_LAYER_CHANGE
;0.2
G1 X10.251 Y68.533
G1 E.8 F1800
M204 S500
;TYPE:Skirt/Brim
;WIDTH:0.42
G1 F1200
G1 X87.451 Y68.533 E2.42055
G1 X89.034 Y68.927 E.05115
G1 X90.247 Y70.017 E.05115
G1 X90.828 Y71.91 E.06207
G1 X90.828 Y149.91 E2.44564
G1 X90.434 Y151.493 E.05115
G1 X89.343 Y152.707 E.05115
G1 X87.451 Y153.287 E.06207
G1 X10.251 Y153.287 E2.42055
G1 X8.667 Y152.893 E.05115
G1 X7.454 Y151.803 E.05115
G1 X6.873 Y149.91 E.06207
G1 X6.873 Y71.91 E2.44564
G1 X7.268 Y70.327 E.05115
G1 X8.358 Y69.113 E.05115
G1 X10.193 Y68.551 E.06019
; printing object крышки.STL id:0 copy 0
;WIPE_START
G1 F7200
G1 X13.393 Y68.55 E-.76
;WIPE_END
G1 E-.04 F1800
G1 X21.955 Y96.64 F9000
G1 E.8 F1800
;TYPE:Perimeter
;WIDTH:0.419999
G1 F1200
G1 X21.918 Y96.541 E.00334
G1 X21.807 Y95.964 E.01841
G1 X21.796 Y95.377 E.01841
G1 X21.884 Y94.797 E.01841
G1 X22.044 Y94.293 E.01657
G1 X22.278 Y93.825 E.01641
G1 X22.599 Y93.377 E.01727
G1 X22.991 Y92.983 E.01741
G1 X23.427 Y92.665 E.01693
G1 X23.924 Y92.411 E.01749
G1 X24.512 Y92.226 E.01932
;WIDTH:0.459146
G1 X24.819 Y92.164 E.01084
;WIDTH:0.498292
G1 X25.126 Y92.103 E.01186
G1 X24.849 Y92.046 E.01069
;WIDTH:0.459146
G1 X24.573 Y91.989 E.00977
;WIDTH:0.419999
G1 X23.999 Y91.827 E.0187
G1 X23.447 Y91.555 E.01929
G1 X22.938 Y91.178 E.01986
G1 X22.515 Y90.726 E.0194
G1 X22.196 Y90.233 E.01841
G1 X21.964 Y89.694 E.01841
G1 X21.827 Y89.123 E.01841
G1 X21.789 Y88.537 E.01841
G1 X21.85 Y87.953 E.01841
G1 X22.009 Y87.388 E.01841
G1 X22.261 Y86.857 E.01841
G1 X22.599 Y86.377 E.01841
G1 X23.014 Y85.961 E.01841
G1 X23.493 Y85.621 E.01841
G1 X24.022 Y85.367 E.01841
G1 X24.587 Y85.206 E.01841
G1 X25.148 Y85.145 E.01772
G1 X25.749 Y85.178 E.01885
G1 X26.328 Y85.314 E.01866
G1 X26.869 Y85.543 E.01841
G1 X27.363 Y85.861 E.01841
G1 X27.796 Y86.257 E.01841
G1 X28.156 Y86.721 E.01841
G1 X28.432 Y87.239 E.01841
G1 X28.617 Y87.797 E.01841
G1 X28.705 Y88.377 E.01841
G1 X28.694 Y88.964 E.01841
G1 X28.583 Y89.541 E.01841
G1 X28.385 Y90.07 E.01771
G1 X28.085 Y90.591 E.01885
G1 X27.703 Y91.047 E.01866
G1 X27.3 Y91.39 E.01659
G1 X26.832 Y91.679 E.01724
G1 X26.31 Y91.894 E.0177
G1 X25.928 Y91.989 E.01235
;WIDTH:0.458805
G1 X25.651 Y92.044 E.00975
;WIDTH:0.497611
G1 X25.375 Y92.099 E.01066
;WIDTH:0.50378
G1 X25.346 Y92.105 E.00113
G1 X25.63 Y92.156 E.01106
;WIDTH:0.46189
G1 X25.914 Y92.206 E.01005
;WIDTH:0.419999
G1 X26.479 Y92.367 E.01841
G1 X27.008 Y92.621 E.01841
G1 X27.487 Y92.961 E.01841
G1 X27.893 Y93.366 E.01798
G1 X28.228 Y93.834 E.01805
G1 X28.453 Y94.284 E.01577
G1 X28.617 Y94.797 E.01687
G1 X28.705 Y95.377 E.01841
G1 X28.694 Y95.964 E.01841
G1 X28.583 Y96.541 E.01841
G1 X28.385 Y97.07 E.01771
G1 X28.085 Y97.591 E.01885
G1 X27.703 Y98.047 E.01866
G1 X27.3 Y98.39 E.01659
G1 X26.832 Y98.679 E.01724
G1 X26.31 Y98.894 E.0177
G1 X25.928 Y98.989 E.01235
;WIDTH:0.458806
G1 X25.651 Y99.044 E.00975
;WIDTH:0.497613
G1 X25.375 Y99.099 E.01066
;WIDTH:0.503782
G1 X25.346 Y99.105 E.00113
G1 X25.63 Y99.156 E.01106
;WIDTH:0.461891
G1 X25.914 Y99.206 E.01005
;WIDTH:0.419999
G1 X26.479 Y99.367 E.01842
G1 X27.008 Y99.621 E.01841
G1 X27.487 Y99.961 E.01841
G1 X27.893 Y100.366 E.01798
G1 X28.228 Y100.834 E.01805
G1 X28.453 Y101.284 E.01577
G1 X28.617 Y101.797 E.01687
G1 X28.705 Y102.377 E.01841
G1 X28.694 Y102.964 E.01841
G1 X28.583 Y103.541 E.01841
G1 X28.377 Y104.091 E.01841
G1 X28.081 Y104.598 E.01841
G1 X27.703 Y105.047 E.01841
G1 X27.3 Y105.39 E.01659
G1 X26.832 Y105.679 E.01724
G1 X26.31 Y105.894 E.0177
G1 X25.928 Y105.989 E.01235
;WIDTH:0.458809
G1 X25.651 Y106.044 E.00975
;WIDTH:0.497619
G1 X25.375 Y106.099 E.01066
;WIDTH:0.503786
G1 X25.346 Y106.105 E.00113
G1 X25.63 Y106.156 E.01106
;WIDTH:0.461893
G1 X25.914 Y106.206 E.01005
;WIDTH:0.419999
G1 X26.479 Y106.367 E.01841
G1 X27.008 Y106.621 E.01841
G1 X27.487 Y106.961 E.01841
G1 X27.893 Y107.366 E.01798
G1 X28.223 Y107.825 E.01771
G1 X28.452 Y108.281 E.01601
G1 X28.617 Y108.797 E.01697
G1 X28.705 Y109.377 E.01841
G1 X28.694 Y109.964 E.01841
G1 X28.583 Y110.541 E.01841
G1 X28.385 Y111.07 E.01771
G1 X28.085 Y111.591 E.01885
G1 X27.703 Y112.047 E.01866
G1 X27.255 Y112.427 E.01841
G1 X26.749 Y112.725 E.01841
G1 X26.2 Y112.933 E.01841
G1 X25.37 Y113.061 E.02634
G1 X24.496 Y112.98 E.02752
G1 X23.898 Y112.791 E.01966
G1 X23.379 Y112.516 E.01841
G1 X22.913 Y112.158 E.01841
G1 X22.515 Y111.726 E.01841
G1 X22.196 Y111.234 E.01841
G1 X21.964 Y110.694 E.01841
G1 X21.827 Y110.123 E.01841
G1 X21.789 Y109.537 E.01841
G1 X21.85 Y108.953 E.01841
G1 X22.009 Y108.388 E.01841
G1 X22.261 Y107.857 E.01841
G1 X22.599 Y107.377 E.01841
G1 X22.991 Y106.983 E.01741
G1 X23.427 Y106.665 E.01693
G1 X23.924 Y106.411 E.01749
G1 X24.512 Y106.226 E.01932
;WIDTH:0.459143
G1 X24.819 Y106.164 E.01084
;WIDTH:0.498287
G1 X25.126 Y106.103 E.01186
G1 X24.849 Y106.046 E.01069
;WIDTH:0.459143
G1 X24.573 Y105.989 E.00977
;WIDTH:0.419999
G1 X23.999 Y105.827 E.0187
G1 X23.447 Y105.555 E.01929
G1 X22.938 Y105.178 E.01986
G1 X22.515 Y104.726 E.0194
G1 X22.196 Y104.233 E.01841
G1 X21.964 Y103.694 E.01841
G1 X21.827 Y103.123 E.01841
G1 X21.789 Y102.537 E.01841
G1 X21.85 Y101.953 E.01841
G1 X22.009 Y101.388 E.01841
G1 X22.261 Y100.857 E.01841
G1 X22.599 Y100.377 E.01841
G1 X22.991 Y99.983 E.01741
G1 X23.427 Y99.665 E.01693
G1 X23.924 Y99.411 E.01749
G1 X24.512 Y99.226 E.01932
;WIDTH:0.459146
G1 X24.819 Y99.164 E.01084
;WIDTH:0.498292
G1 X25.126 Y99.103 E.01186
G1 X24.849 Y99.046 E.01069
;WIDTH:0.459146
G1 X24.573 Y98.989 E.00977
;WIDTH:0.419999
G1 X23.999 Y98.827 E.0187
G1 X23.447 Y98.555 E.01928
G1 X22.938 Y98.178 E.01986
G1 X22.434 Y97.62 E.02359
G1 X22.142 Y97.133 E.01779
G1 X21.977 Y96.697 E.01464
G1 X22.306 Y96.513 F9000
G1 F1200
G1 X22.184 Y95.948 E.01812
G1 X22.17 Y95.425 E.01641
G1 X22.244 Y94.907 E.01641
G1 X22.399 Y94.422 E.01596
G1 X22.639 Y93.958 E.01639
G1 X22.966 Y93.53 E.01689
G1 X23.349 Y93.173 E.01642
G1 X23.788 Y92.887 E.01641
G1 X24.268 Y92.679 E.01641
G1 X24.776 Y92.555 E.01641
G1 X25.314 Y92.523 E.01689
G1 X25.819 Y92.571 E.01591
G1 X26.324 Y92.711 E.01641
G1 X26.797 Y92.934 E.01641
G1 X27.226 Y93.233 E.01641
G1 X27.593 Y93.595 E.01615
G1 X27.896 Y94.013 E.01619
G1 X28.121 Y94.467 E.01587
G1 X28.27 Y94.96 E.01615
G1 X28.335 Y95.465 E.01597
G1 X28.316 Y95.97 E.01585
G1 X28.215 Y96.462 E.01573
G1 X28.035 Y96.93 E.01571
G1 X27.762 Y97.396 E.01695
G1 X27.42 Y97.798 E.01656
G1 X27.018 Y98.133 E.01641
G1 X26.565 Y98.396 E.01641
G1 X26.074 Y98.578 E.01641
G1 X25.322 Y98.687 E.02383
G1 X24.796 Y98.638 E.01658
G1 X24.316 Y98.539 E.01534
G1 X23.853 Y98.349 E.01569
G1 X23.438 Y98.097 E.01524
G1 X23.081 Y97.798 E.01458
G1 X22.75 Y97.413 E.01593
G1 X22.485 Y96.976 E.01604
G1 X22.328 Y96.569 E.01367
G1 X22.655 Y96.382 F9000
;TYPE:External perimeter
G1 F1200
G1 X22.561 Y95.932 E.01441
G1 X22.544 Y95.473 E.01441
G1 X22.605 Y95.017 E.01441
G1 X22.742 Y94.579 E.01441
G1 X22.951 Y94.169 E.01441
G1 X23.227 Y93.802 E.01441
G1 X23.609 Y93.453 E.01622
G1 X24.03 Y93.191 E.01553
G1 X24.476 Y93.014 E.01506
G1 X24.808 Y92.93 E.01074
G1 X25.314 Y92.901 E.01589
G1 X25.799 Y92.955 E.0153
G1 X26.266 Y93.099 E.01531
G1 X26.651 Y93.29 E.01348
G1 X26.988 Y93.528 E.01293
G1 X27.295 Y93.826 E.01341
G1 X27.566 Y94.197 E.01441
G1 X27.771 Y94.608 E.01441
G1 X27.903 Y95.049 E.01441
G1 X27.958 Y95.505 E.01441
G1 X27.936 Y95.964 E.01441
G1 X27.837 Y96.413 E.01441
G1 X27.672 Y96.816 E.01367
G1 X27.42 Y97.228 E.01514
G1 X27.089 Y97.591 E.0154
G1 X26.686 Y97.896 E.01585
G1 X26.251 Y98.115 E.01528
G1 X25.833 Y98.241 E.01369
G1 X25.274 Y98.312 E.01764
G1 X24.668 Y98.241 E.01913
G1 X24.149 Y98.08 E.01705
G1 X23.675 Y97.803 E.01721
G1 X23.364 Y97.549 E.01258
G1 X23.065 Y97.207 E.01425
G1 X22.791 Y96.729 E.01728
G1 X22.677 Y96.438 E.00979
G1 X22.266 Y96.29 F9000
;WIPE_START
G1 F7200
G1 X22.561 Y95.932 E-.12323
G1 X22.544 Y95.473 E-.10916
G1 X22.605 Y95.017 E-.10916
G1 X22.742 Y94.579 E-.10916
G1 X22.951 Y94.169 E-.10916
G1 X23.227 Y93.802 E-.10916
G1 X23.51 Y93.543 E-.09098
;WIPE_END
G1 E-.04 F1800
G1 X24.724 Y99.567 F9000
G1 E.8 F1800
;TYPE:Perimeter
G1 F1200
G1 X25.314 Y99.523 E.01854
G1 X25.819 Y99.571 E.01591
G1 X26.324 Y99.711 E.01641
G1 X26.797 Y99.934 E.01641
G1 X27.226 Y100.233 E.01641
G1 X27.593 Y100.595 E.01615
G1 X27.896 Y101.013 E.0162
G1 X28.121 Y101.467 E.01587
G1 X28.27 Y101.96 E.01615
G1 X28.335 Y102.466 E.01599
G1 X28.315 Y102.977 E.01603
G1 X28.213 Y103.469 E.01577
G1 X28.027 Y103.95 E.01617
G1 X27.76 Y104.4 E.01641
G1 X27.42 Y104.798 E.01641
G1 X27.018 Y105.133 E.01641
G1 X26.565 Y105.396 E.01641
G1 X26.074 Y105.578 E.01641
G1 X25.322 Y105.687 E.02383
G1 X24.796 Y105.638 E.01658
G1 X24.316 Y105.539 E.01534
G1 X23.853 Y105.349 E.01569
G1 X23.438 Y105.097 E.01524
G1 X23.081 Y104.798 E.01458
G1 X22.75 Y104.413 E.01593
G1 X22.485 Y103.976 E.01604
G1 X22.286 Y103.462 E.01728
G1 X22.184 Y102.948 E.01641
G1 X22.17 Y102.425 E.01641
G1 X22.244 Y101.907 E.01641
G1 X22.399 Y101.422 E.01596
G1 X22.639 Y100.958 E.01639
G1 X22.966 Y100.53 E.01689
G1 X23.349 Y100.173 E.01642
G1 X23.788 Y99.887 E.01641
G1 X24.268 Y99.679 E.01641
G1 X24.666 Y99.582 E.01285
G1 X24.808 Y99.93 F9000
;TYPE:External perimeter
G1 F1200
G1 X25.314 Y99.901 E.01589
G1 X25.799 Y99.955 E.0153
G1 X26.266 Y100.099 E.01531
G1 X26.651 Y100.29 E.01348
G1 X26.988 Y100.528 E.01293
G1 X27.295 Y100.826 E.01341
G1 X27.566 Y101.197 E.01441
G1 X27.767 Y101.598 E.01407
G1 X27.903 Y102.049 E.01475
G1 X27.958 Y102.505 E.01441
G1 X27.936 Y102.964 E.01441
G1 X27.837 Y103.413 E.01441
G1 X27.663 Y103.838 E.01441
G1 X27.42 Y104.228 E.01441
G1 X27.089 Y104.591 E.0154
G1 X26.686 Y104.896 E.01585
G1 X26.251 Y105.115 E.01528
G1 X25.833 Y105.241 E.01369
G1 X25.274 Y105.312 E.01765
G1 X24.668 Y105.241 E.01913
G1 X24.149 Y105.08 E.01705
G1 X23.675 Y104.803 E.01721
G1 X23.364 Y104.549 E.01258
G1 X23.062 Y104.202 E.01441
G1 X22.791 Y103.729 E.01712
G1 X22.655 Y103.382 E.01167
G1 X22.561 Y102.932 E.01441
G1 X22.544 Y102.473 E.01441
G1 X22.605 Y102.017 E.01441
G1 X22.742 Y101.579 E.01441
G1 X22.951 Y101.169 E.01441
G1 X23.227 Y100.802 E.01441
G1 X23.609 Y100.453 E.01622
G1 X24.03 Y100.191 E.01553
G1 X24.476 Y100.014 E.01506
G1 X24.75 Y99.945 E.00886
G1 X24.956 Y99.559 F9000
G1 X25.145 Y99.104
;TYPE:Perimeter
;WIDTH:0.503782
G1 F1200
G1 X25.346 Y99.105 E.0077
;WIPE_START
G1 F7200
G1 X25.145 Y99.104 E-.04774
;WIPE_END
G1 E-.75226 F1800
G1 X24.768 Y106.562 F9000
G1 E.8 F1800
;WIDTH:0.419999
G1 F1200
G1 X25.18 Y106.52 E.01299
G1 X25.72 Y106.554 E.01695
G1 X26.233 Y106.679 E.01656
G1 X26.713 Y106.887 E.01641
G1 X27.152 Y107.173 E.01641
G1 X27.535 Y107.529 E.01641
G1 X27.853 Y107.945 E.01641
G1 X28.096 Y108.409 E.01641
G1 X28.275 Y108.985 E.01891
G1 X28.335 Y109.521 E.01691
G1 X28.305 Y110.043 E.01641
G1 X28.194 Y110.533 E.01574
G1 X27.995 Y111.011 E.01625
G1 X27.721 Y111.455 E.01636
G1 X27.38 Y111.839 E.0161
G1 X26.989 Y112.155 E.01576
G1 X26.543 Y112.408 E.01608
G1 X26.047 Y112.586 E.01651
G1 X25.322 Y112.687 E.02296
G1 X24.543 Y112.605 E.02454
G1 X24.023 Y112.435 E.01716
G1 X23.562 Y112.187 E.01641
G1 X23.15 Y111.865 E.01641
G1 X22.798 Y111.477 E.01641
G1 X22.517 Y111.036 E.01641
G1 X22.314 Y110.553 E.01641
G1 X22.196 Y110.043 E.01641
G1 X22.166 Y109.521 E.01641
G1 X22.224 Y109.001 E.01641
G1 X22.37 Y108.498 E.01641
G1 X22.598 Y108.027 E.01641
G1 X22.903 Y107.601 E.01641
G1 X23.275 Y107.233 E.01641
G1 X23.704 Y106.934 E.01641
G1 X24.177 Y106.711 E.01641
G1 X24.709 Y106.568 E.01725
G1 X24.808 Y106.93 F9000
;TYPE:External perimeter
G1 F1200
G1 X25.314 Y106.901 E.01589
G1 X25.799 Y106.955 E.0153
G1 X26.266 Y107.099 E.01531
G1 X26.651 Y107.29 E.01348
G1 X26.988 Y107.528 E.01293
G1 X27.295 Y107.826 E.01341
G1 X27.566 Y108.197 E.01441
G1 X27.771 Y108.608 E.01441
G1 X27.902 Y109.043 E.01425
G1 X27.958 Y109.505 E.01458
G1 X27.927 Y110.008 E.0158
G1 X27.837 Y110.413 E.013
G1 X27.672 Y110.816 E.01367
G1 X27.42 Y111.228 E.01514
G1 X27.114 Y111.571 E.01441
G1 X26.755 Y111.858 E.01441
G1 X26.335 Y112.086 E.01496
G1 X25.91 Y112.231 E.0141
G1 X25.272 Y112.313 E.02015
G1 X24.591 Y112.231 E.02151
G1 X24.12 Y112.066 E.01566
G1 X23.72 Y111.84 E.01441
G1 X23.364 Y111.549 E.01441
G1 X23.062 Y111.202 E.01441
G1 X22.824 Y110.81 E.01441
G1 X22.655 Y110.382 E.01441
G1 X22.561 Y109.932 E.01441
G1 X22.544 Y109.473 E.01441
G1 X22.605 Y109.017 E.01441
G1 X22.742 Y108.579 E.01441
G1 X22.951 Y108.169 E.01441
G1 X23.227 Y107.802 E.01441
G1 X23.609 Y107.453 E.01622
G1 X24.03 Y107.191 E.01553
G1 X24.476 Y107.014 E.01506
G1 X24.75 Y106.945 E.00886
G1 X24.956 Y106.559 F9000
G1 X25.145 Y106.104
;TYPE:Perimeter
;WIDTH:0.503786
G1 F1200
G1 X25.346 Y106.105 E.0077
;WIPE_START
G1 F7200
G1 X25.145 Y106.104 E-.04774
;WIPE_END
G1 E-.75226 F1800
G1 X25.247 Y91.679 F9000
G1 E.8 F1800
;WIDTH:0.419999
G1 F1200
G1 X24.796 Y91.638 E.0142
G1 X24.316 Y91.539 E.01535
G1 X23.853 Y91.349 E.01569
G1 X23.438 Y91.097 E.01524
G1 X23.081 Y90.798 E.01458
G1 X22.75 Y90.413 E.01593
G1 X22.485 Y89.976 E.01604
G1 X22.286 Y89.462 E.01728
G1 X22.184 Y88.948 E.01641
G1 X22.17 Y88.425 E.01641
G1 X22.244 Y87.907 E.01641
G1 X22.405 Y87.409 E.01641
G1 X22.648 Y86.945 E.01641
G1 X22.966 Y86.529 E.01641
G1 X23.349 Y86.173 E.01641
G1 X23.788 Y85.887 E.01641
G1 X24.268 Y85.679 E.01641
G1 X24.776 Y85.555 E.01641
G1 X25.272 Y85.52 E.01557
G1 X25.77 Y85.56 E.01568
G1 X26.279 Y85.693 E.0165
G1 X26.757 Y85.909 E.01643
G1 X27.191 Y86.202 E.01643
G1 X27.569 Y86.565 E.01643
G1 X27.88 Y86.986 E.01643
G1 X28.116 Y87.454 E.01643
G1 X28.265 Y87.939 E.01592
G1 X28.334 Y88.459 E.01643
G1 X28.316 Y88.971 E.01608
G1 X28.215 Y89.462 E.0157
G1 X28.035 Y89.93 E.01571
G1 X27.762 Y90.396 E.01695
G1 X27.42 Y90.798 E.01656
G1 X27.018 Y91.133 E.01641
G1 X26.565 Y91.396 E.01641
G1 X26.074 Y91.578 E.01641
G1 X25.306 Y91.685 E.02432
G1 X25.274 Y91.312 F9000
;TYPE:External perimeter
G1 F1200
G1 X24.668 Y91.241 E.01913
G1 X24.149 Y91.08 E.01705
G1 X23.675 Y90.803 E.01721
G1 X23.364 Y90.549 E.01258
G1 X23.062 Y90.202 E.01441
G1 X22.791 Y89.729 E.01712
G1 X22.655 Y89.382 E.01167
G1 X22.561 Y88.932 E.01441
G1 X22.544 Y88.473 E.01441
G1 X22.605 Y88.017 E.01441
G1 X22.742 Y87.579 E.01441
G1 X22.951 Y87.17 E.01441
G1 X23.227 Y86.802 E.01441
G1 X23.561 Y86.486 E.01441
G1 X23.943 Y86.23 E.01441
G1 X24.363 Y86.044 E.01441
G1 X24.808 Y85.93 E.01441
G1 X25.243 Y85.896 E.01367
G1 X25.724 Y85.936 E.01514
G1 X26.168 Y86.054 E.01441
G1 X26.586 Y86.246 E.01441
G1 X26.965 Y86.506 E.01441
G1 X27.295 Y86.826 E.01441
G1 X27.566 Y87.197 E.01441
G1 X27.771 Y87.608 E.01441
G1 X27.903 Y88.049 E.01441
G1 X27.958 Y88.505 E.01441
G1 X27.936 Y88.964 E.01441
G1 X27.837 Y89.413 E.01441
G1 X27.672 Y89.816 E.01367
G1 X27.42 Y90.228 E.01514
G1 X27.089 Y90.591 E.0154
G1 X26.686 Y90.896 E.01585
G1 X26.251 Y91.115 E.01528
