; generated by PrusaSlicer 2.5.0+win64 on 2023-06-06 at 13:40:45 UTC

; 

; external perimeters extrusion width = 0.42mm
; perimeters extrusion width = 0.44mm
; infill extrusion width = 0.44mm
; solid infill extrusion width = 0.44mm
; top infill extrusion width = 0.40mm
; support material extrusion width = 0.36mm
; first layer extrusion width = 0.42mm

M201 X500 Y500 Z100 E5000 ; sets maximum accelerations, mm/sec^2
M203 X500 Y500 Z10 E60 ; sets maximum feedrates, mm / sec
M204 P500 R1000 T500 ; sets acceleration (P, T) and retract acceleration (R), mm/sec^2
M205 X8.00 Y8.00 Z0.40 E5.00 ; sets the jerk limits, mm/sec
M205 S0 T0 ; sets the minimum extruding and travel feed rate, mm/sec
M107
;TYPE:Custom
G90 ; use absolute coordinates
M83 ; extruder relative mode
M104 S150 ; set temporary nozzle temp to prevent oozing during homing
M140 S60 ; set final bed temp
G4 S30 ; allow partial nozzle warmup
G28 ; home all axis and restore leveling
G1 Z50 F240
G1 X2.0 Y10 F3000
M104 S215 ; set final nozzle temp
M190 S60 ; wait for bed temp to stabilize
M109 S215 ; wait for nozzle temp to stabilize
G1 Z0.28 F240
G92 E0
G1 X2.0 Y140 E10 F1500 ; prime the nozzle
G1 X2.3 Y140 F5000
G92 E0
G1 X2.3 Y10 E10 F1200 ; prime the nozzle
G92 E0
G21 ; set units to millimeters
G90 ; use absolute coordinates
M83 ; use relative distances for extrusion
; Filament gcode
M107
;LAYER_CHANGE
;Z:0.2
;HEIGHT:0.2
;BEFORE_LAYER_CHANGE
G92 E0
;0.2


G1 E-.8 F1800
G1 Z.2 F9000
;AFTER_LAYER_CHANGE
;0.2
G1 X79.141 Y98.668
G1 E.8 F1800
M204 S500
;TYPE:Skirt/Brim
;WIDTH:0.42
G1 F1200
G1 X108.607 Y85.327 E1.01418
G1 X110 Y85.026 E.04468
G1 X114.125 Y85.026 E.12934
G1 X115.698 Y85.415 E.05081
G1 X141.039 Y98.756 E.89794
G1 X142.257 Y99.843 E.05115
G1 X142.843 Y101.745 E.06241
G1 X142.843 Y135.489 E1.05803
G1 X142.449 Y137.072 E.05115
G1 X141.359 Y138.286 E.05115
G1 X139.466 Y138.866 E.06207
G1 X80.534 Y138.866 E1.84777
G1 X78.951 Y138.472 E.05115
G1 X77.737 Y137.382 E.05115
G1 X77.157 Y135.489 E.06207
G1 X77.157 Y101.745 E1.05803
G1 X77.551 Y100.161 E.05115
G1 X79.097 Y98.709 E.06651
; printing object рельса3.STL id:0 copy 0
;WIPE_START
G1 F7200
G1 X82.012 Y97.388 E-.76
;WIPE_END
G1 E-.04 F1800
G1 X93.068 Y111.024 F9000
G1 E.8 F1800
;TYPE:Support material
G1 F1200
G1 X105.722 Y111.024 E.39675
G1 X105.722 Y109.699 E.04157
G1 X109.538 Y109.699 E.11966
G1 X109.538 Y121.594 E.37298
G1 X109.809 Y121.865 E.012
G1 X114.316 Y121.865 E.14134
G1 X114.587 Y121.594 E.012
G1 X114.587 Y121.072 E.01638
G1 X117.795 Y119.904 E.10704
G1 X117.962 Y119.666 E.00913
G1 X117.962 Y118.428 E.0388
G1 X117.795 Y118.189 E.00913
G1 X114.587 Y117.022 E.10704
G1 X114.587 Y116.359 E.02077
G1 X117.795 Y115.192 E.10704
G1 X117.962 Y114.953 E.00913
G1 X117.962 Y113.716 E.0388
G1 X117.795 Y113.477 E.00913
G1 X114.587 Y112.309 E.10704
G1 X114.587 Y111.647 E.02077
G1 X117.795 Y110.48 E.10704
G1 X117.962 Y110.241 E.00913
G1 X117.962 Y109.699 E.017
G1 X118.255 Y109.699 E.0092
G1 X118.255 Y111.024 E.04157
G1 X126.932 Y111.024 E.27206
G1 X126.932 Y101.745 E.29096
G1 X139.466 Y101.745 E.39299
G1 X139.466 Y135.489 E1.05803
G1 X126.932 Y135.489 E.39299
G1 X126.932 Y124.884 E.33252
G1 X93.068 Y124.884 E1.0618
G1 X93.068 Y135.489 E.33252
G1 X80.534 Y135.489 E.39299
G1 X80.534 Y101.745 E1.05803
G1 X93.068 Y101.745 E.39299
G1 X93.068 Y110.968 E.28918
;WIPE_START
G1 F7200
G1 X93.068 Y107.768 E-.76
;WIPE_END
G1 E-.04 F1800
G1 X138.909 Y135.319 F9000
G1 E.8 F1800
G1 F1200
G1 X138.909 Y102.084 E1.04207
G1 X138.49 Y102.084 E.01314
G1 X138.49 Y135.15 E1.03675
G1 X138.071 Y135.15 E.01314
G1 X138.071 Y102.084 E1.03675
G1 X137.652 Y102.084 E.01314
G1 X137.652 Y135.15 E1.03675
G1 X137.234 Y135.15 E.01314
G1 X137.234 Y102.084 E1.03675
G1 X136.815 Y102.084 E.01314
G1 X136.815 Y135.15 E1.03675
G1 X136.396 Y135.15 E.01314
G1 X136.396 Y102.084 E1.03675
G1 X135.977 Y102.084 E.01314
G1 X135.977 Y135.15 E1.03675
G1 X135.558 Y135.15 E.01314
G1 X135.558 Y102.084 E1.03675
G1 X135.139 Y102.084 E.01314
G1 X135.139 Y135.15 E1.03675
G1 X134.72 Y135.15 E.01314
G1 X134.72 Y102.084 E1.03675
G1 X134.301 Y102.084 E.01314
G1 X134.301 Y135.15 E1.03675
G1 X133.882 Y135.15 E.01314
G1 X133.882 Y102.084 E1.03675
G1 X133.463 Y102.084 E.01314
G1 X133.463 Y135.15 E1.03675
G1 X133.044 Y135.15 E.01314
G1 X133.044 Y102.084 E1.03675
G1 X132.625 Y102.084 E.01314
G1 X132.625 Y135.15 E1.03675
G1 X132.206 Y135.15 E.01314
G1 X132.206 Y102.084 E1.03675
G1 X131.787 Y102.084 E.01314
G1 X131.787 Y135.15 E1.03675
G1 X131.368 Y135.15 E.01314
G1 X131.368 Y102.084 E1.03675
G1 X130.949 Y102.084 E.01314
G1 X130.949 Y135.15 E1.03675
G1 X130.53 Y135.15 E.01314
G1 X130.53 Y102.084 E1.03675
G1 X130.111 Y102.084 E.01314
G1 X130.111 Y135.15 E1.03675
G1 X129.692 Y135.15 E.01314
G1 X129.692 Y102.084 E1.03675
G1 X129.273 Y102.084 E.01314
G1 X129.273 Y135.15 E1.03675
G1 X128.854 Y135.15 E.01314
G1 X128.854 Y102.084 E1.03675
G1 X128.435 Y102.084 E.01314
G1 X128.435 Y135.15 E1.03675
G1 X128.016 Y135.15 E.01314
G1 X128.016 Y102.084 E1.03675
G1 X127.597 Y102.084 E.01314
G1 X127.597 Y135.15 E1.03675
G1 X127.272 Y135.15 E.0102
G1 X127.272 Y124.544 E.33252
G1 X127.178 Y124.544 E.00293
G1 X127.178 Y111.364 E.41327
G1 X126.759 Y111.364 E.01314
G1 X126.759 Y124.544 E.41327
G1 X126.34 Y124.544 E.01314
G1 X126.34 Y111.364 E.41327
G1 X125.921 Y111.364 E.01314
G1 X125.921 Y124.544 E.41327
G1 X125.502 Y124.544 E.01314
G1 X125.502 Y111.364 E.41327
G1 X125.083 Y111.364 E.01314
G1 X125.083 Y124.544 E.41327
G1 X124.664 Y124.544 E.01314
G1 X124.664 Y111.364 E.41327
G1 X124.245 Y111.364 E.01314
G1 X124.245 Y124.544 E.41327
G1 X123.826 Y124.544 E.01314
G1 X123.826 Y111.364 E.41327
G1 X123.407 Y111.364 E.01314
G1 X123.407 Y124.544 E.41327
G1 X122.988 Y124.544 E.01314
G1 X122.988 Y111.364 E.41327
G1 X122.569 Y111.364 E.01314
G1 X122.569 Y124.544 E.41327
G1 X122.15 Y124.544 E.01314
G1 X122.15 Y111.364 E.41327
G1 X121.731 Y111.364 E.01314
G1 X121.731 Y124.544 E.41327
G1 X121.312 Y124.544 E.01314
G1 X121.312 Y111.364 E.41327
G1 X120.893 Y111.364 E.01314
G1 X120.893 Y124.544 E.41327
G1 X120.474 Y124.544 E.01314
G1 X120.474 Y111.364 E.41327
G1 X120.055 Y111.364 E.01314
G1 X120.055 Y124.544 E.41327
G1 X119.636 Y124.544 E.01314
G1 X119.636 Y111.364 E.41327
G1 X119.217 Y111.364 E.01314
G1 X119.217 Y124.544 E.41327
G1 X118.799 Y124.544 E.01314
G1 X118.799 Y111.364 E.41327
G1 X118.38 Y111.364 E.01314
G1 X118.38 Y124.544 E.41327
G1 X117.961 Y124.544 E.01314
G1 X117.961 Y120.205 E.13605
G1 X117.542 Y120.358 E.01398
G1 X117.542 Y124.544 E.13127
G1 X117.123 Y124.544 E.01314
G1 X117.123 Y120.51 E.12649
G1 X116.704 Y120.663 E.01398
G1 X116.704 Y124.544 E.12171
G1 X116.285 Y124.544 E.01314
G1 X116.285 Y120.815 E.11693
G1 X115.866 Y120.968 E.01398
G1 X115.866 Y124.544 E.11215
G1 X115.447 Y124.544 E.01314
G1 X115.447 Y121.12 E.10736
G1 X115.028 Y121.273 E.01398
G1 X115.028 Y124.544 E.10258
G1 X114.609 Y124.544 E.01314
G1 X114.609 Y122.053 E.07813
G1 X114.457 Y122.204 E.00673
G1 X114.19 Y122.204 E.00838
G1 X114.19 Y124.544 E.07337
G1 X113.771 Y124.544 E.01314
G1 X113.771 Y122.204 E.07337
G1 X113.352 Y122.204 E.01314
G1 X113.352 Y124.544 E.07337
G1 X112.933 Y124.544 E.01314
G1 X112.933 Y122.204 E.07337
G1 X112.514 Y122.204 E.01314
G1 X112.514 Y124.544 E.07337
G1 X112.095 Y124.544 E.01314
G1 X112.095 Y122.204 E.07337
G1 X111.676 Y122.204 E.01314
G1 X111.676 Y124.544 E.07337
G1 X111.257 Y124.544 E.01314
G1 X111.257 Y122.204 E.07337
G1 X110.838 Y122.204 E.01314
G1 X110.838 Y124.544 E.07337
G1 X110.419 Y124.544 E.01314
G1 X110.419 Y122.204 E.07337
G1 X110 Y122.204 E.01314
G1 X110 Y124.544 E.07337
G1 X109.581 Y124.544 E.01314
G1 X109.581 Y122.117 E.0761
G1 X109.199 Y121.735 E.01696
G1 X109.199 Y110.038 E.36675
G1 X109.162 Y110.038 E.00115
G1 X109.162 Y124.544 E.45484
G1 X108.743 Y124.544 E.01314
G1 X108.743 Y110.038 E.45484
G1 X108.324 Y110.038 E.01314
G1 X108.324 Y124.544 E.45484
G1 X107.905 Y124.544 E.01314
G1 X107.905 Y110.038 E.45484
G1 X107.486 Y110.038 E.01314
G1 X107.486 Y124.544 E.45484
G1 X107.067 Y124.544 E.01314
G1 X107.067 Y110.038 E.45484
G1 X106.648 Y110.038 E.01314
G1 X106.648 Y124.544 E.45484
G1 X106.229 Y124.544 E.01314
G1 X106.229 Y110.038 E.45484
G1 X106.061 Y110.038 E.00527
G1 X106.061 Y111.364 E.04157
G1 X105.81 Y111.364 E.00786
G1 X105.81 Y124.544 E.41327
G1 X105.391 Y124.544 E.01314
G1 X105.391 Y111.364 E.41327
G1 X104.972 Y111.364 E.01314
G1 X104.972 Y124.544 E.41327
G1 X104.553 Y124.544 E.01314
G1 X104.553 Y111.364 E.41327
G1 X104.134 Y111.364 E.01314
G1 X104.134 Y124.544 E.41327
G1 X103.715 Y124.544 E.01314
G1 X103.715 Y111.364 E.41327
G1 X103.296 Y111.364 E.01314
G1 X103.296 Y124.544 E.41327
G1 X102.877 Y124.544 E.01314
G1 X102.877 Y111.364 E.41327
G1 X102.458 Y111.364 E.01314
G1 X102.458 Y124.544 E.41327
G1 X102.039 Y124.544 E.01314
G1 X102.039 Y111.364 E.41327
G1 X101.62 Y111.364 E.01314
G1 X101.62 Y124.544 E.41327
G1 X101.201 Y124.544 E.01314
G1 X101.201 Y111.364 E.41327
G1 X100.783 Y111.364 E.01314
G1 X100.783 Y124.544 E.41327
G1 X100.364 Y124.544 E.01314
G1 X100.364 Y111.364 E.41327
G1 X99.945 Y111.364 E.01314
G1 X99.945 Y124.544 E.41327
G1 X99.526 Y124.544 E.01314
G1 X99.526 Y111.364 E.41327
G1 X99.107 Y111.364 E.01314
G1 X99.107 Y124.544 E.41327
G1 X98.688 Y124.544 E.01314
G1 X98.688 Y111.364 E.41327
G1 X98.269 Y111.364 E.01314
G1 X98.269 Y124.544 E.41327
G1 X97.85 Y124.544 E.01314
G1 X97.85 Y111.364 E.41327
G1 X97.431 Y111.364 E.01314
G1 X97.431 Y124.544 E.41327
G1 X97.012 Y124.544 E.01314
G1 X97.012 Y111.364 E.41327
G1 X96.593 Y111.364 E.01314
G1 X96.593 Y124.544 E.41327
G1 X96.174 Y124.544 E.01314
G1 X96.174 Y111.364 E.41327
G1 X95.755 Y111.364 E.01314
G1 X95.755 Y124.544 E.41327
G1 X95.336 Y124.544 E.01314
G1 X95.336 Y111.364 E.41327
G1 X94.917 Y111.364 E.01314
G1 X94.917 Y124.544 E.41327
G1 X94.498 Y124.544 E.01314
G1 X94.498 Y111.364 E.41327
G1 X94.079 Y111.364 E.01314
G1 X94.079 Y124.544 E.41327
G1 X93.66 Y124.544 E.01314
G1 X93.66 Y111.364 E.41327
G1 X93.241 Y111.364 E.01314
G1 X93.241 Y124.544 E.41327
G1 X92.822 Y124.544 E.01314
G1 X92.822 Y111.364 E.41327
G1 X92.728 Y111.364 E.00293
G1 X92.728 Y102.084 E.29096
G1 X92.403 Y102.084 E.0102
G1 X92.403 Y135.15 E1.03675
G1 X91.984 Y135.15 E.01314
G1 X91.984 Y102.084 E1.03675
G1 X91.565 Y102.084 E.01314
G1 X91.565 Y135.15 E1.03675
G1 X91.146 Y135.15 E.01314
G1 X91.146 Y102.084 E1.03675
G1 X90.727 Y102.084 E.01314
G1 X90.727 Y135.15 E1.03675
G1 X90.308 Y135.15 E.01314
G1 X90.308 Y102.084 E1.03675
G1 X89.889 Y102.084 E.01314
G1 X89.889 Y135.15 E1.03675
G1 X89.47 Y135.15 E.01314
G1 X89.47 Y102.084 E1.03675
G1 X89.051 Y102.084 E.01314
G1 X89.051 Y135.15 E1.03675
G1 X88.632 Y135.15 E.01314
G1 X88.632 Y102.084 E1.03675
G1 X88.213 Y102.084 E.01314
G1 X88.213 Y135.15 E1.03675
G1 X87.794 Y135.15 E.01314
G1 X87.794 Y102.084 E1.03675
G1 X87.375 Y102.084 E.01314
G1 X87.375 Y135.15 E1.03675
G1 X86.956 Y135.15 E.01314
G1 X86.956 Y102.084 E1.03675
G1 X86.537 Y102.084 E.01314
G1 X86.537 Y135.15 E1.03675
G1 X86.118 Y135.15 E.01314
G1 X86.118 Y102.084 E1.03675
G1 X85.699 Y102.084 E.01314
G1 X85.699 Y135.15 E1.03675
G1 X85.28 Y135.15 E.01314
G1 X85.28 Y102.084 E1.03675
G1 X84.861 Y102.084 E.01314
G1 X84.861 Y135.15 E1.03675
G1 X84.442 Y135.15 E.01314
G1 X84.442 Y102.084 E1.03675
G1 X84.023 Y102.084 E.01314
G1 X84.023 Y135.15 E1.03675
G1 X83.604 Y135.15 E.01314
G1 X83.604 Y102.084 E1.03675
G1 X83.185 Y102.084 E.01314
G1 X83.185 Y135.15 E1.03675
G1 X82.766 Y135.15 E.01314
G1 X82.766 Y102.084 E1.03675
G1 X82.348 Y102.084 E.01314
G1 X82.348 Y135.15 E1.03675
G1 X81.929 Y135.15 E.01314
G1 X81.929 Y102.084 E1.03675
G1 X81.51 Y102.084 E.01314
G1 X81.51 Y135.15 E1.03675
G1 X81.091 Y135.15 E.01314
G1 X81.091 Y101.914 E1.04207
;WIPE_START
G1 F7200
G1 X81.091 Y105.114 E-.76
;WIPE_END
G1 E-.04 F1800
G1 X117.961 Y118.13 F9000
G1 E.8 F1800
G1 F1200
G1 X117.961 Y115.493 E.08269
G1 X117.542 Y115.645 E.01398
G1 X117.542 Y117.736 E.06555
G1 X117.123 Y117.584 E.01398
G1 X117.123 Y115.798 E.05599
G1 X116.704 Y115.95 E.01398
G1 X116.704 Y117.431 E.04643
G1 X116.285 Y117.279 E.01398
G1 X116.285 Y116.103 E.03687
G1 X115.866 Y116.255 E.01398
G1 X115.866 Y117.126 E.0273
G1 X115.447 Y116.974 E.01398
G1 X115.447 Y116.408 E.01774
G1 X115.028 Y116.56 E.01398
G1 X115.028 Y117.002 E.01384
;WIPE_START
G1 F7200
G1 X115.028 Y116.56 E-.10483
G1 X115.447 Y116.408 E-.10589
G1 X115.447 Y116.974 E-.13438
G1 X115.866 Y117.126 E-.10589
G1 X115.866 Y116.255 E-.20682
G1 X116.27 Y116.108 E-.10218
;WIPE_END
G1 E-.04 F1800
G1 X117.961 Y113.418 F9000
G1 E.8 F1800
G1 F1200
G1 X117.961 Y111.364 E.06441
G1 X117.916 Y111.364 E.0014
G1 X117.916 Y110.797 E.01778
G1 X117.542 Y110.933 E.01249
G1 X117.542 Y113.024 E.06555
G1 X117.123 Y112.871 E.01398
G1 X117.123 Y111.085 E.05599
G1 X116.704 Y111.238 E.01398
G1 X116.704 Y112.719 E.04643
G1 X116.285 Y112.566 E.01398
G1 X116.285 Y111.39 E.03687
G1 X115.866 Y111.543 E.01398
G1 X115.866 Y112.414 E.0273
G1 X115.447 Y112.261 E.01398
G1 X115.447 Y111.695 E.01774
G1 X115.028 Y111.848 E.01398
G1 X115.028 Y112.289 E.01384
;WIPE_START
G1 F7200
G1 X115.028 Y111.848 E-.10483
G1 X115.447 Y111.695 E-.10589
G1 X115.447 Y112.261 E-.13438
G1 X115.866 Y112.414 E-.10589
G1 X115.866 Y111.543 E-.20682
G1 X116.27 Y111.396 E-.10218
;WIPE_END
G1 E-.04 F1800
G1 X113.092 Y111.09 F9000
G1 E.8 F1800
;TYPE:Perimeter
;WIDTH:0.419999
G1 F1200
G1 X113.061 Y111.239 E.00476
G1 X113.061 Y112.718 E.04639
G1 X113.139 Y113.094 E.01205
G1 X113.339 Y113.387 E.01112
G1 X113.681 Y113.604 E.01269
G1 X115.689 Y114.334 E.06698
G1 X113.681 Y115.065 E.06698
G1 X113.339 Y115.282 E.01269
G1 X113.139 Y115.575 E.01112
G1 X113.061 Y115.951 E.01205
G1 X113.061 Y117.43 E.04639
G1 X113.136 Y117.8 E.01183
G1 X113.331 Y118.09 E.01095
G1 X113.681 Y118.316 E.01307
G1 X115.689 Y119.047 E.06698
G1 X113.681 Y119.777 E.06698
G1 X113.353 Y119.981 E.01212
G1 X113.2 Y120.339 E.01219
G1 X111.064 Y120.339 E.06696
G1 X111.064 Y89.467 E.96796
G1 X113.193 Y89.467 E.06674
G1 X113.348 Y89.834 E.01249
G1 X113.681 Y90.042 E.0123
G1 X115.689 Y90.773 E.06698
G1 X113.681 Y91.503 E.06698
G1 X113.348 Y91.711 E.0123
G1 X113.137 Y92.017 E.01166
G1 X113.061 Y92.389 E.0119
G1 X113.061 Y93.868 E.04639
G1 X113.139 Y94.245 E.01205
G1 X113.339 Y94.537 E.01112
G1 X113.681 Y94.754 E.01269
G1 X115.689 Y95.485 E.06698
G1 X113.681 Y96.216 E.06698
G1 X113.339 Y96.432 E.01269
G1 X113.139 Y96.725 E.01112
G1 X113.061 Y97.101 E.01205
G1 X113.061 Y98.581 E.04639
G1 X113.139 Y98.957 E.01205
G1 X113.339 Y99.25 E.01112
G1 X113.681 Y99.467 E.01269
G1 X115.689 Y100.197 E.06698
G1 X113.681 Y100.928 E.06698
G1 X113.339 Y101.145 E.01269
G1 X113.139 Y101.438 E.01112
G1 X113.061 Y101.814 E.01205
G1 X113.061 Y103.293 E.04639
G1 X113.139 Y103.669 E.01205
G1 X113.339 Y103.962 E.01112
G1 X113.681 Y104.179 E.01269
G1 X115.689 Y104.91 E.06698
G1 X113.681 Y105.64 E.06698
G1 X113.339 Y105.857 E.01269
G1 X113.139 Y106.15 E.01112
G1 X113.061 Y106.526 E.01205
G1 X113.061 Y108.006 E.04639
G1 X113.139 Y108.382 E.01205
G1 X113.339 Y108.675 E.01112
G1 X113.681 Y108.891 E.01269
G1 X115.689 Y109.622 E.06698
G1 X113.681 Y110.353 E.06698
G1 X113.339 Y110.569 E.01269
G1 X113.139 Y110.862 E.01112
G1 X113.104 Y111.031 E.00541
G1 X113.453 Y111.164 F9000
G1 F1200
G1 X113.438 Y111.239 E.00238
G1 X113.438 Y112.718 E.04639
G1 X113.485 Y112.944 E.00723
G1 X113.605 Y113.119 E.00667
G1 X113.81 Y113.249 E.00761
G1 X116.791 Y114.334 E.09946
G1 X113.81 Y115.419 E.09946
G1 X113.686 Y115.483 E.00437
G1 X113.485 Y115.725 E.00987
G1 X113.438 Y115.951 E.00723
G1 X113.446 Y117.528 E.04945
G1 X113.6 Y117.826 E.01052
G1 X113.81 Y117.962 E.00784
G1 X116.791 Y119.047 E.09946
G1 X113.81 Y120.132 E.09946
G1 X113.613 Y120.254 E.00727
G1 X113.438 Y120.716 E.01548
G1 X110.687 Y120.716 E.08625
G1 X110.687 Y89.09 E.9916
G1 X113.438 Y89.09 E.08625
G1 X113.61 Y89.563 E.01578
G1 X113.81 Y89.688 E.00738
G1 X116.791 Y90.773 E.09946
G1 X113.81 Y91.857 E.09946
G1 X113.69 Y91.918 E.00421
G1 X113.484 Y92.166 E.01012
G1 X113.438 Y92.389 E.00714
G1 X113.438 Y93.868 E.04639
G1 X113.485 Y94.094 E.00723
G1 X113.605 Y94.27 E.00667
G1 X113.81 Y94.4 E.00761
G1 X116.791 Y95.485 E.09946
G1 X113.81 Y96.57 E.09946
